; generated by Slic3r 1.30.0.25-prusa3d-release_candidate_1_3-win64 on 2018-11-23 at 15:52:50

; external perimeters extrusion width = 0.45mm
; perimeters extrusion width = 0.45mm
; infill extrusion width = 0.45mm
; solid infill extrusion width = 0.45mm
; top infill extrusion width = 0.45mm
; support material extrusion width = 0.35mm

M107
M190 S50 ; set bed temperature and wait for it to be reached
M201 X1000 Y1000 E600
M109 S210
M92 E161.3
G28
G92 E0.0
G1 X8.0 F2000
G1 Y60.0 E4.0  F1000.0
G1 Y100.0 E8.5  F1000.0
G92 E0.0
G21 ; set units to millimeters
G90 ; use absolute coordinates
M83 ; use relative distances for extrusion
G1 E-1.50000 F1800.00000
G1 Z0.200 F6000.000
G1 X47.985 Y47.784 F6000.000
G1 E1.50000 F1800.00000
G1 F2100
G1 E0.04915 F1800.000 ; pressure advance
G1 X49.032 Y46.896 E0.04648
G1 X50.000 Y46.693 E0.03347
G1 X150.000 Y46.693 E3.38488
G1 X151.316 Y47.085 E0.04648
G1 X152.204 Y48.132 E0.04648
G1 X152.407 Y49.100 E0.03347
G1 X152.407 Y151.000 E3.44919
G1 X152.016 Y152.316 E0.04648
G1 X150.968 Y153.204 E0.04648
G1 X150.000 Y153.407 E0.03347
G1 X50.000 Y153.407 E3.38488
G1 X48.684 Y153.016 E0.04648
G1 X47.796 Y151.968 E0.04648
G1 X47.593 Y151.000 E0.03347
G1 X47.593 Y49.100 E3.44919
G1 X47.968 Y47.842 E0.04445
G1 E-0.04915 F1800.000 ; pressure discharge
G1 E-1.50000 F1800.00000
G1 X109.064 Y146.168 F6000.000
G1 E1.50000 F1800.00000
G1 F1680
G1 E0.03144 F1800.000 ; pressure advance
G1 X112.123 Y146.168 E0.10354
G1 X112.123 Y149.228 E0.10358
G1 X109.064 Y149.228 E0.10354
G1 X109.064 Y146.228 E0.10155
G1 X108.961 Y145.782 F6000.000
G1 X109.064 Y145.582 F6000.000
G1 F1680
G1 X109.064 Y142.523 E0.10354
G1 X112.123 Y142.523 E0.10354
G1 X112.123 Y145.582 E0.10354
G1 X109.124 Y145.582 E0.10151
G1 X108.678 Y145.686 F6000.000
G1 E-0.03144 F1800.000 ; pressure discharge
G1 E-1.50000 F1800.00000
G1 X109.064 Y141.936 F6000.000
G1 E1.50000 F1800.00000
G1 F1680
G1 X109.064 Y138.877 E0.10354
G1 X112.123 Y138.877 E0.10354
G1 X112.123 Y141.936 E0.10354
G1 X109.124 Y141.936 E0.10151
G1 X108.678 Y142.040 F6000.000
G1 E-1.50000 F1800.00000
G1 X112.710 Y141.936 F6000.000
G1 E1.50000 F1800.00000
G1 F1680
G1 X112.710 Y138.877 E0.10354
G1 X115.769 Y138.877 E0.10354
G1 X115.769 Y141.936 E0.10354
G1 X112.770 Y141.936 E0.10151
G1 X112.324 Y142.040 F6000.000
G1 X112.710 Y142.523 F6000.000
G1 F1680
G1 X115.769 Y142.523 E0.10354
G1 X115.769 Y145.582 E0.10354
G1 X112.710 Y145.582 E0.10354
G1 X112.710 Y142.583 E0.10151
G1 X112.607 Y142.137 F6000.000
G1 E-1.50000 F1800.00000
G1 X112.710 Y146.168 F6000.000
G1 E1.50000 F1800.00000
G1 F1680
G1 X115.769 Y146.168 E0.10354
G1 X115.769 Y149.228 E0.10358
G1 X112.710 Y149.228 E0.10354
G1 X112.710 Y146.228 E0.10155
G1 X112.607 Y145.782 F6000.000
G1 E-1.50000 F1800.00000
G1 X116.356 Y146.168 F6000.000
G1 E1.50000 F1800.00000
G1 F1680
G1 X119.415 Y146.168 E0.10354
G1 X119.415 Y149.228 E0.10358
G1 X116.356 Y149.228 E0.10354
G1 X116.356 Y146.228 E0.10155
G1 X116.253 Y145.782 F6000.000
G1 X116.356 Y145.582 F6000.000
G1 F1680
G1 X116.356 Y142.523 E0.10354
G1 X119.415 Y142.523 E0.10354
G1 X119.415 Y145.582 E0.10354
G1 X116.416 Y145.582 E0.10151
G1 X115.970 Y145.686 F6000.000
G1 E-1.50000 F1800.00000
G1 X116.356 Y141.936 F6000.000
G1 E1.50000 F1800.00000
G1 F1680
G1 X116.356 Y138.877 E0.10354
G1 X119.415 Y138.877 E0.10354
G1 X119.415 Y141.936 E0.10354
G1 X116.416 Y141.936 E0.10151
G1 X115.970 Y142.040 F6000.000
G1 E-1.50000 F1800.00000
G1 X120.002 Y141.936 F6000.000
G1 E1.50000 F1800.00000
G1 F1680
G1 X120.002 Y138.877 E0.10354
G1 X123.061 Y138.877 E0.10354
G1 X123.061 Y141.936 E0.10354
G1 X120.062 Y141.936 E0.10151
G1 X119.616 Y142.040 F6000.000
G1 X120.002 Y142.523 F6000.000
G1 F1680
G1 X123.061 Y142.523 E0.10354
G1 X123.061 Y145.582 E0.10354
G1 X120.002 Y145.582 E0.10354
G1 X120.002 Y142.583 E0.10151
G1 X119.899 Y142.137 F6000.000
G1 E-1.50000 F1800.00000
G1 X120.002 Y146.168 F6000.000
G1 E1.50000 F1800.00000
G1 F1680
G1 X123.061 Y146.168 E0.10354
G1 X123.061 Y149.228 E0.10358
G1 X120.002 Y149.228 E0.10354
G1 X120.002 Y146.228 E0.10155
G1 X119.899 Y145.782 F6000.000
G1 E-1.50000 F1800.00000
G1 X123.648 Y146.168 F6000.000
G1 E1.50000 F1800.00000
G1 F1680
G1 X126.707 Y146.168 E0.10354
G1 X126.707 Y149.228 E0.10358
G1 X123.648 Y149.228 E0.10354
G1 X123.648 Y146.228 E0.10155
G1 X123.545 Y145.782 F6000.000
G1 E-1.50000 F1800.00000
G1 X127.293 Y146.168 F6000.000
G1 E1.50000 F1800.00000
G1 F1680
G1 X130.353 Y146.168 E0.10358
G1 X130.353 Y149.228 E0.10358
G1 X127.293 Y149.228 E0.10358
G1 X127.293 Y146.228 E0.10155
G1 X127.190 Y145.782 F6000.000
G1 X127.293 Y145.582 F6000.000
G1 F1680
G1 X127.293 Y142.523 E0.10354
G1 X130.353 Y142.523 E0.10358
G1 X130.353 Y145.582 E0.10354
G1 X127.353 Y145.582 E0.10155
G1 X126.907 Y145.686 F6000.000
G1 X126.707 Y145.582 F6000.000
G1 F1680
G1 X123.648 Y145.582 E0.10354
G1 X123.648 Y142.523 E0.10354
G1 X126.707 Y142.523 E0.10354
G1 X126.707 Y145.522 E0.10151
G1 X126.811 Y145.969 F6000.000
G1 E-1.50000 F1800.00000
G1 X126.707 Y141.936 F6000.000
G1 E1.50000 F1800.00000
G1 F1680
G1 X123.648 Y141.936 E0.10354
G1 X123.648 Y138.877 E0.10354
G1 X126.707 Y138.877 E0.10354
G1 X126.707 Y141.876 E0.10151
G1 X126.811 Y142.323 F6000.000
G1 X127.293 Y141.936 F6000.000
G1 F1680
G1 X127.293 Y138.877 E0.10354
G1 X130.353 Y138.877 E0.10358
G1 X130.353 Y141.936 E0.10354
G1 X127.353 Y141.936 E0.10155
G1 X126.907 Y142.040 F6000.000
G1 E-1.50000 F1800.00000
G1 X130.939 Y141.936 F6000.000
G1 E1.50000 F1800.00000
G1 F1680
G1 X130.939 Y138.877 E0.10354
G1 X133.998 Y138.877 E0.10354
G1 X133.998 Y141.936 E0.10354
G1 X130.999 Y141.936 E0.10151
G1 X130.553 Y142.040 F6000.000
G1 X130.939 Y142.523 F6000.000
G1 F1680
G1 X133.998 Y142.523 E0.10354
G1 X133.998 Y145.582 E0.10354
G1 X130.939 Y145.582 E0.10354
G1 X130.939 Y142.583 E0.10151
G1 X130.836 Y142.137 F6000.000
G1 E-1.50000 F1800.00000
G1 X130.939 Y146.168 F6000.000
G1 E1.50000 F1800.00000
G1 F1680
G1 X133.998 Y146.168 E0.10354
G1 X133.998 Y149.228 E0.10358
G1 X130.939 Y149.228 E0.10354
G1 X130.939 Y146.228 E0.10155
G1 X130.836 Y145.782 F6000.000
G1 E-1.50000 F1800.00000
G1 X134.585 Y146.168 F6000.000
G1 E1.50000 F1800.00000
G1 F1680
G1 X137.644 Y146.168 E0.10354
G1 X137.644 Y149.228 E0.10358
G1 X134.585 Y149.228 E0.10354
G1 X134.585 Y146.228 E0.10155
G1 X134.482 Y145.782 F6000.000
G1 X134.585 Y145.582 F6000.000
G1 F1680
G1 X134.585 Y142.523 E0.10354
G1 X137.644 Y142.523 E0.10354
G1 X137.644 Y145.582 E0.10354
G1 X134.645 Y145.582 E0.10151
G1 X134.199 Y145.686 F6000.000
G1 E-1.50000 F1800.00000
G1 X134.585 Y141.936 F6000.000
G1 E1.50000 F1800.00000
G1 F1680
G1 X134.585 Y138.877 E0.10354
G1 X137.644 Y138.877 E0.10354
G1 X137.644 Y141.936 E0.10354
G1 X134.645 Y141.936 E0.10151
G1 X134.199 Y142.040 F6000.000
G1 E-1.50000 F1800.00000
G1 X138.231 Y141.936 F6000.000
G1 E1.50000 F1800.00000
G1 F1680
G1 X138.231 Y138.877 E0.10354
G1 X141.290 Y138.877 E0.10354
G1 X141.290 Y141.936 E0.10354
G1 X138.291 Y141.936 E0.10151
G1 X137.845 Y142.040 F6000.000
G1 X138.231 Y142.523 F6000.000
G1 F1680
G1 X141.290 Y142.523 E0.10354
G1 X141.290 Y145.582 E0.10354
G1 X138.231 Y145.582 E0.10354
G1 X138.231 Y142.583 E0.10151
G1 X138.128 Y142.137 F6000.000
G1 E-1.50000 F1800.00000
G1 X138.231 Y146.168 F6000.000
G1 E1.50000 F1800.00000
G1 F1680
G1 X141.290 Y146.168 E0.10354
G1 X141.290 Y149.228 E0.10358
G1 X138.231 Y149.228 E0.10354
G1 X138.231 Y146.228 E0.10155
G1 X138.128 Y145.782 F6000.000
G1 E-1.50000 F1800.00000
G1 X141.877 Y146.168 F6000.000
G1 E1.50000 F1800.00000
G1 F1680
G1 X144.936 Y146.168 E0.10354
G1 X144.936 Y149.228 E0.10358
G1 X141.877 Y149.228 E0.10354
G1 X141.877 Y146.228 E0.10155
G1 X141.774 Y145.782 F6000.000
G1 X141.877 Y145.582 F6000.000
G1 F1680
G1 X141.877 Y142.523 E0.10354
G1 X144.936 Y142.523 E0.10354
G1 X144.936 Y145.582 E0.10354
G1 X141.937 Y145.582 E0.10151
G1 X141.491 Y145.686 F6000.000
G1 E-1.50000 F1800.00000
G1 X141.877 Y141.936 F6000.000
G1 E1.50000 F1800.00000
G1 F1680
G1 X141.877 Y138.877 E0.10354
G1 X144.936 Y138.877 E0.10354
G1 X144.936 Y141.936 E0.10354
G1 X141.937 Y141.936 E0.10151
G1 X141.491 Y142.040 F6000.000
G1 E-1.50000 F1800.00000
G1 X145.523 Y141.936 F6000.000
G1 E1.50000 F1800.00000
G1 F1680
G1 X145.523 Y138.877 E0.10354
G1 X148.582 Y138.877 E0.10354
G1 X148.582 Y141.936 E0.10354
G1 X145.583 Y141.936 E0.10151
G1 X145.137 Y142.040 F6000.000
G1 X145.523 Y142.523 F6000.000
G1 F1680
G1 X148.582 Y142.523 E0.10354
G1 X148.582 Y145.582 E0.10354
G1 X145.523 Y145.582 E0.10354
G1 X145.523 Y142.583 E0.10151
G1 X145.420 Y142.137 F6000.000
G1 E-1.50000 F1800.00000
G1 X145.523 Y146.168 F6000.000
G1 E1.50000 F1800.00000
G1 F1680
G1 X148.582 Y146.168 E0.10354
G1 X148.582 Y149.228 E0.10358
G1 X145.523 Y149.228 E0.10354
G1 X145.523 Y146.228 E0.10155
G1 X145.420 Y145.782 F6000.000
G1 E-1.50000 F1800.00000
G1 X145.523 Y138.290 F6000.000
G1 E1.50000 F1800.00000
G1 F1680
G1 X145.523 Y135.231 E0.10354
G1 X148.582 Y135.231 E0.10354
G1 X148.582 Y138.290 E0.10354
G1 X145.583 Y138.290 E0.10151
G1 X145.137 Y138.394 F6000.000
G1 X144.936 Y138.290 F6000.000
G1 F1680
G1 X141.877 Y138.290 E0.10354
G1 X141.877 Y135.231 E0.10354
G1 X144.936 Y135.231 E0.10354
G1 X144.936 Y138.230 E0.10151
G1 X145.040 Y138.677 F6000.000
G1 E-1.50000 F1800.00000
G1 X144.936 Y134.644 F6000.000
G1 E1.50000 F1800.00000
G1 F1680
G1 X141.877 Y134.644 E0.10354
G1 X141.877 Y131.585 E0.10354
G1 X144.936 Y131.585 E0.10354
G1 X144.936 Y134.584 E0.10151
G1 X145.040 Y135.031 F6000.000
G1 X145.523 Y134.644 F6000.000
G1 F1680
G1 X145.523 Y131.585 E0.10354
G1 X148.582 Y131.585 E0.10354
G1 X148.582 Y134.644 E0.10354
G1 X145.583 Y134.644 E0.10151
G1 X145.137 Y134.748 F6000.000
G1 E-1.50000 F1800.00000
G1 X145.523 Y130.998 F6000.000
G1 E1.50000 F1800.00000
G1 F1680
G1 X145.523 Y127.939 E0.10354
G1 X148.582 Y127.939 E0.10354
G1 X148.582 Y130.998 E0.10354
G1 X145.583 Y130.998 E0.10151
G1 X145.137 Y131.102 F6000.000
G1 X144.936 Y130.998 F6000.000
G1 F1680
G1 X141.877 Y130.998 E0.10354
G1 X141.877 Y127.939 E0.10354
G1 X144.936 Y127.939 E0.10354
G1 X144.936 Y130.938 E0.10151
G1 X145.040 Y131.385 F6000.000
G1 E-1.50000 F1800.00000
G1 X144.936 Y127.352 F6000.000
G1 E1.50000 F1800.00000
G1 F1680
G1 X141.877 Y127.352 E0.10354
G1 X141.877 Y124.293 E0.10354
G1 X144.936 Y124.293 E0.10354
G1 X144.936 Y127.292 E0.10151
G1 X145.040 Y127.739 F6000.000
G1 E-1.50000 F1800.00000
G1 X144.936 Y123.707 F6000.000
G1 E1.50000 F1800.00000
G1 F1680
G1 X141.877 Y123.707 E0.10354
G1 X141.877 Y120.648 E0.10354
G1 X144.936 Y120.648 E0.10354
G1 X144.936 Y123.647 E0.10151
G1 X145.040 Y124.094 F6000.000
G1 E-1.50000 F1800.00000
G1 X144.936 Y120.061 F6000.000
G1 E1.50000 F1800.00000
G1 F1680
G1 X141.877 Y120.061 E0.10354
G1 X141.877 Y117.002 E0.10354
G1 X144.936 Y117.002 E0.10354
G1 X144.936 Y120.001 E0.10151
G1 X145.040 Y120.448 F6000.000
G1 X145.523 Y120.061 F6000.000
G1 F1680
G1 X145.523 Y117.002 E0.10354
G1 X148.582 Y117.002 E0.10354
G1 X148.582 Y120.061 E0.10354
G1 X145.583 Y120.061 E0.10151
G1 X145.137 Y120.165 F6000.000
G1 X145.523 Y120.648 F6000.000
G1 F1680
G1 X148.582 Y120.648 E0.10354
G1 X148.582 Y123.707 E0.10354
G1 X145.523 Y123.707 E0.10354
G1 X145.523 Y120.708 E0.10151
G1 X145.420 Y120.262 F6000.000
G1 E-1.50000 F1800.00000
G1 X145.523 Y124.293 F6000.000
G1 E1.50000 F1800.00000
G1 F1680
G1 X148.582 Y124.293 E0.10354
G1 X148.582 Y127.352 E0.10354
G1 X145.523 Y127.352 E0.10354
G1 X145.523 Y124.353 E0.10151
G1 X145.420 Y123.907 F6000.000
G1 E-1.50000 F1800.00000
G1 X141.290 Y124.293 F6000.000
G1 E1.50000 F1800.00000
G1 F1680
G1 X141.290 Y127.352 E0.10354
G1 X138.231 Y127.352 E0.10354
G1 X138.231 Y124.293 E0.10354
G1 X141.230 Y124.293 E0.10151
G1 X141.677 Y124.190 F6000.000
G1 X141.290 Y123.707 F6000.000
G1 F1680
G1 X138.231 Y123.707 E0.10354
G1 X138.231 Y120.648 E0.10354
G1 X141.290 Y120.648 E0.10354
G1 X141.290 Y123.647 E0.10151
G1 X141.394 Y124.094 F6000.000
G1 E-1.50000 F1800.00000
G1 X141.290 Y120.061 F6000.000
G1 E1.50000 F1800.00000
G1 F1680
G1 X138.231 Y120.061 E0.10354
G1 X138.231 Y117.002 E0.10354
G1 X141.290 Y117.002 E0.10354
G1 X141.290 Y120.001 E0.10151
G1 X141.394 Y120.448 F6000.000
G1 E-1.50000 F1800.00000
G1 X137.644 Y120.061 F6000.000
G1 E1.50000 F1800.00000
G1 F1680
G1 X134.585 Y120.061 E0.10354
G1 X134.585 Y117.002 E0.10354
G1 X137.644 Y117.002 E0.10354
G1 X137.644 Y120.001 E0.10151
G1 X137.748 Y120.448 F6000.000
G1 X137.644 Y120.648 F6000.000
G1 F1680
G1 X137.644 Y123.707 E0.10354
G1 X134.585 Y123.707 E0.10354
G1 X134.585 Y120.648 E0.10354
G1 X137.584 Y120.648 E0.10151
G1 X138.031 Y120.545 F6000.000
G1 E-1.50000 F1800.00000
G1 X137.644 Y124.293 F6000.000
G1 E1.50000 F1800.00000
G1 F1680
G1 X137.644 Y127.352 E0.10354
G1 X134.585 Y127.352 E0.10354
G1 X134.585 Y124.293 E0.10354
G1 X137.584 Y124.293 E0.10151
G1 X138.031 Y124.190 F6000.000
G1 E-1.50000 F1800.00000
G1 X133.998 Y124.293 F6000.000
G1 E1.50000 F1800.00000
G1 F1680
G1 X133.998 Y127.352 E0.10354
G1 X130.939 Y127.352 E0.10354
G1 X130.939 Y124.293 E0.10354
G1 X133.938 Y124.293 E0.10151
G1 X134.385 Y124.190 F6000.000
G1 X133.998 Y123.707 F6000.000
G1 F1680
G1 X130.939 Y123.707 E0.10354
G1 X130.939 Y120.648 E0.10354
G1 X133.998 Y120.648 E0.10354
G1 X133.998 Y123.647 E0.10151
G1 X134.102 Y124.094 F6000.000
G1 E-1.50000 F1800.00000
G1 X133.998 Y120.061 F6000.000
G1 E1.50000 F1800.00000
G1 F1680
G1 X130.939 Y120.061 E0.10354
G1 X130.939 Y117.002 E0.10354
G1 X133.998 Y117.002 E0.10354
G1 X133.998 Y120.001 E0.10151
G1 X134.102 Y120.448 F6000.000
G1 E-1.50000 F1800.00000
G1 X130.353 Y120.061 F6000.000
G1 E1.50000 F1800.00000
G1 F1680
G1 X127.293 Y120.061 E0.10358
G1 X127.293 Y117.002 E0.10354
G1 X130.353 Y117.002 E0.10358
G1 X130.353 Y120.001 E0.10151
G1 X130.457 Y120.448 F6000.000
G1 E-1.50000 F1800.00000
G1 X126.707 Y120.061 F6000.000
G1 E1.50000 F1800.00000
G1 F1680
G1 X123.648 Y120.061 E0.10354
G1 X123.648 Y117.002 E0.10354
G1 X126.707 Y117.002 E0.10354
G1 X126.707 Y120.001 E0.10151
G1 X126.811 Y120.448 F6000.000
G1 X126.707 Y120.648 F6000.000
G1 F1680
G1 X126.707 Y123.707 E0.10354
G1 X123.648 Y123.707 E0.10354
G1 X123.648 Y120.648 E0.10354
G1 X126.647 Y120.648 E0.10151
G1 X127.094 Y120.545 F6000.000
G1 X127.293 Y120.648 F6000.000
G1 F1680
G1 X130.353 Y120.648 E0.10358
G1 X130.353 Y123.707 E0.10354
G1 X127.293 Y123.707 E0.10358
G1 X127.293 Y120.708 E0.10151
G1 X127.190 Y120.262 F6000.000
G1 E-1.50000 F1800.00000
G1 X127.293 Y124.293 F6000.000
G1 E1.50000 F1800.00000
G1 F1680
G1 X130.353 Y124.293 E0.10358
G1 X130.353 Y127.352 E0.10354
G1 X127.293 Y127.352 E0.10358
G1 X127.293 Y124.353 E0.10151
G1 X127.190 Y123.907 F6000.000
G1 X126.707 Y124.293 F6000.000
G1 F1680
G1 X126.707 Y127.352 E0.10354
G1 X123.648 Y127.352 E0.10354
G1 X123.648 Y124.293 E0.10354
G1 X126.647 Y124.293 E0.10151
G1 X127.107 Y124.293 F6000.000
G1 E-1.50000 F1800.00000
G1 X126.707 Y127.939 F6000.000
G1 E1.50000 F1800.00000
G1 F1680
G1 X126.707 Y130.998 E0.10354
G1 X123.648 Y130.998 E0.10354
G1 X123.648 Y127.939 E0.10354
G1 X126.647 Y127.939 E0.10151
G1 X127.094 Y127.836 F6000.000
G1 X127.293 Y127.939 F6000.000
G1 F1680
G1 X130.353 Y127.939 E0.10358
G1 X130.353 Y130.998 E0.10354
G1 X127.293 Y130.998 E0.10358
G1 X127.293 Y127.999 E0.10151
G1 X127.190 Y127.553 F6000.000
G1 E-1.50000 F1800.00000
G1 X130.939 Y127.939 F6000.000
G1 E1.50000 F1800.00000
G1 F1680
G1 X133.998 Y127.939 E0.10354
G1 X133.998 Y130.998 E0.10354
G1 X130.939 Y130.998 E0.10354
G1 X130.939 Y127.999 E0.10151
G1 X130.836 Y127.553 F6000.000
G1 E-1.50000 F1800.00000
G1 X134.585 Y127.939 F6000.000
G1 E1.50000 F1800.00000
G1 F1680
G1 X137.644 Y127.939 E0.10354
G1 X137.644 Y130.998 E0.10354
G1 X134.585 Y130.998 E0.10354
G1 X134.585 Y127.999 E0.10151
G1 X134.482 Y127.553 F6000.000
G1 E-1.50000 F1800.00000
G1 X138.231 Y127.939 F6000.000
G1 E1.50000 F1800.00000
G1 F1680
G1 X141.290 Y127.939 E0.10354
G1 X141.290 Y130.998 E0.10354
G1 X138.231 Y130.998 E0.10354
G1 X138.231 Y127.999 E0.10151
G1 X138.128 Y127.553 F6000.000
G1 E-1.50000 F1800.00000
G1 X138.231 Y131.585 F6000.000
G1 E1.50000 F1800.00000
G1 F1680
G1 X141.290 Y131.585 E0.10354
G1 X141.290 Y134.644 E0.10354
G1 X138.231 Y134.644 E0.10354
