; generated by Slic3r 1.30.0.25-prusa3d-release_candidate_1_3-win64 on 2018-11-23 at 18:14:10

; external perimeters extrusion width = 0.45mm
; perimeters extrusion width = 0.45mm
; infill extrusion width = 0.45mm
; solid infill extrusion width = 0.45mm
; top infill extrusion width = 0.45mm
; support material extrusion width = 0.35mm

M107
M190 S50 ; set bed temperature and wait for it to be reached
M201 X1000 Y1000 E600
M109 S210
M92 E161.3
G28
G92 E0.0
G1 X8.0 F2000
G1 Y60.0 E4.0  F1000.0
G1 Y100.0 E8.5  F1000.0
G92 E0.0
G21 ; set units to millimeters
G90 ; use absolute coordinates
M83 ; use relative distances for extrusion
G1 E-1.50000 F1800.00000
G1 Z0.200 F6000.000
G1 X76.971 Y98.757 F6000.000
G1 E1.50000 F1800.00000
G1 F2100
G1 E0.04924 F1800.000 ; pressure advance
G1 X77.396 Y98.435 E0.01807
G1 X115.017 Y76.069 E1.48145
G1 X115.666 Y75.802 E0.02377
G1 X116.706 Y75.543 E0.03628
G1 X118.078 Y75.606 E0.04648
G1 X119.466 Y76.855 E0.06320
G1 X119.906 Y77.793 E0.03507
G1 X120.372 Y79.026 E0.04461
G1 X120.498 Y79.527 E0.01749
G1 X120.698 Y80.946 E0.04851
G1 X120.721 Y81.242 E0.01008
G1 X121.421 Y125.272 E1.49052
G1 X121.166 Y126.388 E0.03877
G1 X120.768 Y127.183 E0.03009
G1 X119.828 Y128.184 E0.04648
G1 X118.742 Y128.508 E0.03836
G1 X117.807 Y128.557 E0.03170
G1 X117.046 Y128.475 E0.02590
G1 X115.444 Y128.038 E0.05621
G1 X115.175 Y127.947 E0.00960
G1 X113.661 Y127.334 E0.05529
G1 X113.398 Y127.208 E0.00985
G1 X74.906 Y105.889 E1.48941
G1 X73.944 Y104.909 E0.04648
G1 X73.675 Y103.563 E0.04648
G1 X73.920 Y102.705 E0.03018
G1 X74.740 Y101.070 E0.06192
G1 X75.236 Y100.401 E0.02817
G1 X76.927 Y98.798 E0.07889
G1 E-0.04924 F1800.000 ; pressure discharge
G1 E-1.50000 F1800.00000
G1 X105.271 Y104.345 F6000.000
G1 E1.50000 F1800.00000
G1 F1680
G1 E0.03145 F1800.000 ; pressure advance
G1 X104.908 Y104.533 E0.01384
G1 X104.403 Y104.676 E0.01776
G1 X104.011 Y104.709 E0.01333
G1 X103.619 Y104.676 E0.01333
G1 X103.109 Y104.532 E0.01792
G1 X102.697 Y104.311 E0.01584
G1 X102.338 Y104.017 E0.01570
G1 X102.044 Y103.658 E0.01571
G1 X101.826 Y103.245 E0.01580
G1 X101.692 Y102.810 E0.01542
G1 X101.646 Y102.381 E0.01458
G1 X101.690 Y101.886 E0.01683
G1 X101.826 Y101.439 E0.01579
G1 X102.045 Y101.030 E0.01571
G1 X102.338 Y100.673 E0.01564
G1 X102.700 Y100.378 E0.01581
G1 X103.105 Y100.160 E0.01556
G1 X103.546 Y100.026 E0.01560
G1 X103.992 Y99.980 E0.01519
G1 X104.473 Y100.025 E0.01635
G1 X104.917 Y100.160 E0.01570
G1 X105.322 Y100.378 E0.01556
G1 X105.683 Y100.673 E0.01581
G1 X105.979 Y101.032 E0.01572
G1 X106.207 Y101.468 E0.01666
G1 X106.332 Y101.888 E0.01485
G1 X106.376 Y102.381 E0.01676
G1 X106.330 Y102.810 E0.01458
G1 X106.196 Y103.245 E0.01542
G1 X105.978 Y103.658 E0.01580
G1 X105.680 Y104.021 E0.01588
G1 X105.318 Y104.308 E0.01564
G1 X105.049 Y104.002 F6000.000
G1 F1680
G1 X104.758 Y104.153 E0.01112
G1 X104.330 Y104.274 E0.01503
G1 X104.011 Y104.300 E0.01085
G1 X103.692 Y104.274 E0.01085
G1 X103.263 Y104.152 E0.01509
G1 X102.924 Y103.971 E0.01300
G1 X102.628 Y103.728 E0.01298
G1 X102.385 Y103.431 E0.01297
G1 X102.204 Y103.089 E0.01311
G1 X102.093 Y102.727 E0.01280
G1 X102.055 Y102.378 E0.01191
G1 X102.092 Y101.964 E0.01406
G1 X102.204 Y101.596 E0.01302
G1 X102.385 Y101.258 E0.01299
G1 X102.627 Y100.963 E0.01291
G1 X102.927 Y100.718 E0.01313
G1 X103.262 Y100.537 E0.01286
G1 X103.627 Y100.427 E0.01290
G1 X103.994 Y100.389 E0.01251
G1 X104.394 Y100.426 E0.01360
G1 X104.760 Y100.537 E0.01293
G1 X105.095 Y100.718 E0.01286
G1 X105.395 Y100.963 E0.01313
G1 X105.638 Y101.258 E0.01294
G1 X105.828 Y101.621 E0.01388
G1 X105.930 Y101.965 E0.01212
G1 X105.967 Y102.378 E0.01403
G1 X105.929 Y102.727 E0.01191
G1 X105.818 Y103.089 E0.01280
G1 X105.637 Y103.431 E0.01311
G1 X105.393 Y103.729 E0.01303
G1 X105.096 Y103.965 E0.01282
G1 X105.066 Y104.330 F6000.000
G1 E-0.03145 F1800.000 ; pressure discharge
G1 E-1.50000 F1800.00000
G1 X107.214 Y105.914 F6000.000
G1 E1.50000 F1800.00000
G1 F1680
G1 X106.708 Y106.371 E0.02311
G1 X106.051 Y106.911 E0.02876
G1 X105.513 Y106.935 E0.01824
G1 X104.670 Y107.094 E0.02903
G1 X104.350 Y107.127 E0.01091
G1 X103.698 Y107.129 E0.02207
G1 X103.373 Y107.097 E0.01104
G1 X102.734 Y106.966 E0.02207
G1 X102.119 Y106.750 E0.02207
G1 X101.823 Y106.611 E0.01104
G1 X101.265 Y106.275 E0.02207
G1 X101.004 Y106.079 E0.01104
G1 X100.526 Y105.638 E0.02202
G1 X100.299 Y105.378 E0.01168
G1 X99.926 Y104.854 E0.02179
G1 X99.761 Y104.562 E0.01133
G1 X99.501 Y103.972 E0.02181
G1 X99.398 Y103.653 E0.01137
G1 X99.231 Y102.948 E0.02451
G1 X99.036 Y101.828 E0.03848
G1 X99.284 Y101.350 E0.01824
G1 X99.569 Y100.541 E0.02903
G1 X99.852 Y99.958 E0.02194
G1 X100.215 Y99.416 E0.02207
G1 X100.647 Y98.928 E0.02207
G1 X100.887 Y98.707 E0.01104
G1 X101.410 Y98.317 E0.02207
G1 X101.980 Y98.001 E0.02207
G1 X102.588 Y97.766 E0.02207
G1 X102.903 Y97.679 E0.01104
G1 X103.545 Y97.572 E0.02202
G1 X103.889 Y97.553 E0.01168
G1 X104.534 Y97.579 E0.02184
G1 X104.847 Y97.623 E0.01069
G1 X105.161 Y97.690 E0.01087
G1 X105.993 Y97.941 E0.02941
G1 X106.945 Y98.294 E0.03436
G1 X107.250 Y98.767 E0.01906
G1 X107.795 Y99.400 E0.02826
G1 X107.984 Y99.660 E0.01089
G1 X108.311 Y100.224 E0.02207
G1 X108.559 Y100.827 E0.02207
G1 X108.652 Y101.140 E0.01104
G1 X108.772 Y101.779 E0.02202
G1 X108.799 Y102.123 E0.01168
G1 X108.787 Y102.768 E0.02184
G1 X108.749 Y103.082 E0.01069
G1 X108.605 Y103.718 E0.02207
G1 X108.501 Y104.027 E0.01104
G1 X108.376 Y104.328 E0.01104
G1 X108.067 Y104.902 E0.02207
G1 X107.688 Y105.421 E0.02172
G1 X107.256 Y105.870 E0.02112
G1 X107.498 Y106.206 F6000.000
G1 F1680
G1 X106.973 Y106.681 E0.02396
G1 X106.358 Y107.179 E0.02678
G1 X106.206 Y107.340 E0.00752
G1 X106.043 Y107.319 E0.00557
G1 X105.560 Y107.341 E0.01635
G1 X104.729 Y107.497 E0.02862
G1 X104.378 Y107.534 E0.01193
G1 X103.671 Y107.535 E0.02395
G1 X103.319 Y107.500 E0.01198
G1 X102.625 Y107.359 E0.02395
G1 X101.958 Y107.124 E0.02395
G1 X101.638 Y106.974 E0.01198
G1 X101.031 Y106.609 E0.02395
G1 X100.748 Y106.396 E0.01198
G1 X100.229 Y105.916 E0.02393
G1 X99.979 Y105.630 E0.01286
G1 X99.582 Y105.072 E0.02319
G1 X99.397 Y104.745 E0.01273
G1 X99.120 Y104.117 E0.02320
G1 X99.006 Y103.763 E0.01262
G1 X98.832 Y103.029 E0.02551
G1 X98.651 Y101.959 E0.03676
G1 X98.587 Y101.747 E0.00748
G1 X98.687 Y101.617 E0.00557
G1 X98.910 Y101.188 E0.01635
G1 X99.190 Y100.390 E0.02862
G1 X99.499 Y99.755 E0.02390
G1 X99.892 Y99.167 E0.02395
G1 X100.361 Y98.638 E0.02395
G1 X100.622 Y98.398 E0.01198
G1 X101.189 Y97.975 E0.02395
G1 X101.808 Y97.632 E0.02395
G1 X102.468 Y97.377 E0.02395
G1 X102.809 Y97.283 E0.01198
G1 X103.506 Y97.167 E0.02393
G1 X103.886 Y97.145 E0.01286
G1 X104.571 Y97.173 E0.02321
G1 X104.918 Y97.222 E0.01186
G1 X105.262 Y97.295 E0.01192
G1 X106.123 Y97.555 E0.03045
G1 X107.024 Y97.894 E0.03259
G1 X107.240 Y97.946 E0.00751
G1 X107.303 Y98.098 E0.00559
G1 X107.577 Y98.523 E0.01708
G1 X108.114 Y99.147 E0.02788
G1 X108.321 Y99.432 E0.01193
G1 X108.677 Y100.044 E0.02395
G1 X108.822 Y100.366 E0.01198
G1 X109.046 Y101.037 E0.02395
G1 X109.177 Y101.732 E0.02393
G1 X109.207 Y102.111 E0.01286
G1 X109.193 Y102.796 E0.02321
G1 X109.151 Y103.144 E0.01186
G1 X108.995 Y103.834 E0.02395
G1 X108.882 Y104.170 E0.01198
G1 X108.747 Y104.497 E0.01198
G1 X108.411 Y105.120 E0.02395
G1 X107.996 Y105.688 E0.02382
G1 X107.539 Y106.163 E0.02230
G1 X107.113 Y106.096 F6000.000
G1 E-1.50000 F1800.00000
G1 X108.398 Y103.346 F6000.000
G1 E1.50000 F1800.00000
G1 F1680
G1 X106.563 Y101.511 E0.09141
G1 X106.671 Y102.218 E0.02520
G1 X108.276 Y103.823 E0.07997
G1 X108.101 Y104.247 E0.01616
G1 X106.627 Y102.773 E0.07342
G1 X106.491 Y103.236 E0.01699
G1 X107.899 Y104.644 E0.07016
G1 X107.668 Y105.012 E0.01530
G1 X106.294 Y103.638 E0.06842
G1 X106.048 Y103.991 E0.01516
G1 X107.391 Y105.334 E0.06689
G1 X107.091 Y105.633 E0.01492
G1 X105.757 Y104.299 E0.06646
G1 X105.423 Y104.564 E0.01502
G1 X106.792 Y105.933 E0.06818
G1 X106.477 Y106.217 E0.01494
G1 X105.033 Y104.773 E0.07194
G1 X104.579 Y104.918 E0.01679
G1 X106.148 Y106.487 E0.07818
G1 X105.692 Y106.630 E0.01685
G1 X104.061 Y104.999 E0.08122
G1 X103.424 Y104.962 E0.02247
G1 X105.171 Y106.708 E0.08700
G1 X104.664 Y106.800 E0.01815
G1 X102.431 Y104.568 E0.11123
G1 X101.788 Y103.925 F6000.000
G1 F1680
G1 X99.461 Y101.597 E0.11594
G1 X99.639 Y101.176 E0.01610
G1 X101.393 Y102.930 E0.08738
G1 X101.359 Y102.298 E0.02232
G1 X99.795 Y100.733 E0.07794
G1 X99.972 Y100.312 E0.01610
G1 X101.433 Y101.772 E0.07275
G1 X101.582 Y101.322 E0.01670
G1 X100.191 Y99.931 E0.06930
G1 X100.431 Y99.572 E0.01521
G1 X101.791 Y100.932 E0.06775
G1 X102.056 Y100.598 E0.01502
G1 X100.719 Y99.261 E0.06664
G1 X101.018 Y98.961 E0.01492
G1 X102.365 Y100.308 E0.06711
G1 X102.718 Y100.061 E0.01515
G1 X101.344 Y98.688 E0.06844
G1 X101.712 Y98.457 E0.01531
G1 X103.119 Y99.864 E0.07005
G1 X103.582 Y99.728 E0.01701
G1 X102.103 Y98.249 E0.07369
G1 X102.535 Y98.082 E0.01631
G1 X104.136 Y99.683 E0.07976
G1 X104.846 Y99.794 E0.02531
G1 X103.006 Y97.954 E0.09164
G1 X103.522 Y97.870 E0.01839
G1 X108.486 Y102.834 E0.24727
G1 X108.498 Y102.247 E0.02067
G1 X104.117 Y97.866 E0.21823
G1 X104.797 Y97.947 E0.02413
G1 X108.407 Y101.557 E0.17982
G1 X108.133 Y100.684 E0.03222
G1 X105.621 Y98.173 E0.12511
G1 X106.556 Y98.508 F6000.000
G1 F1680
G1 X106.829 Y98.782 E0.01363
G1 E-1.50000 F1800.00000
G1 X104.102 Y106.837 F6000.000
G1 E1.50000 F1800.00000
G1 F1680
G1 X99.414 Y102.149 E0.23352
G1 X99.547 Y102.882 E0.02622
G1 X103.452 Y106.786 E0.19450
G1 X102.664 Y106.598 E0.02852
G1 X99.760 Y103.693 E0.14469
G1 E-1.50000 F1800.00000
G1 X100.515 Y105.048 F6000.000
G1 E1.50000 F1800.00000
G1 F1680
G1 X101.318 Y105.851 E0.04000
G1 E-1.50000 F1800.00000
G1 Z0.200 F6000.000
G1 X97.352 Y104.029 F6000.000
G1 E1.50000 F1800.00000
G1 F2100
G1 E0.02785 F1800.000 ; pressure advance
G1 X97.475 Y103.783 E0.00701
G1 X96.952 Y104.127 E0.01598
G1 X97.597 Y102.840 E0.03675
G1 X97.404 Y102.523 E0.00946
G1 X96.552 Y104.225 E0.04860
G1 X96.153 Y104.319 E0.01046
G1 X97.045 Y102.539 E0.05085
G1 X96.748 Y102.432 E0.00807
G1 X95.770 Y104.384 E0.05577
G1 X95.399 Y104.424 E0.00952
G1 X97.606 Y100.020 E0.12578
G1 X97.962 Y100.011 E0.00909
G1 X97.097 Y101.736 E0.04929
G1 X97.550 Y101.532 E0.01270
G1 X97.840 Y100.954 E0.01652
G1 E-0.02785 F1800.000 ; pressure discharge
G1 E-1.50000 F1800.00000
G1 X97.159 Y100.211 F6000.000
G1 E1.50000 F1800.00000
G1 F2100
G1 X95.028 Y104.464 E0.12145
G1 X94.546 Y104.724 E0.01399
G1 X96.712 Y100.402 E0.12344
G1 X96.265 Y100.594 E0.01241
G1 X94.192 Y104.731 E0.11817
G1 X93.837 Y104.738 E0.00905
G1 X95.818 Y100.785 E0.11290
G1 X95.372 Y100.974 E0.01238
G1 X93.488 Y104.734 E0.10738
G1 X93.145 Y104.717 E0.00876
G1 X94.927 Y101.163 E0.10151
G1 X94.566 Y101.183 E0.00922
G1 X92.809 Y104.687 E0.10010
G1 X92.479 Y104.646 E0.00851
G1 X94.210 Y101.192 E0.09867
G1 X93.855 Y101.201 E0.00908
G1 X92.153 Y104.597 E0.09699
G1 X91.831 Y104.539 E0.00835
G1 X93.507 Y101.194 E0.09552
G1 X93.170 Y101.166 E0.00864
G1 X91.513 Y104.472 E0.09442
G1 X91.198 Y104.400 E0.00825
G1 X92.841 Y101.122 E0.09364
G1 X92.520 Y101.063 E0.00835
G1 X90.886 Y104.323 E0.09311
G1 X90.574 Y104.245 E0.00821
G1 X92.203 Y100.993 E0.09286
G1 X91.891 Y100.917 E0.00822
G1 X90.264 Y104.163 E0.09273
G1 X89.953 Y104.083 E0.00820
G1 X91.581 Y100.835 E0.09279
G1 X91.272 Y100.751 E0.00818
G1 X89.642 Y104.004 E0.09289
G1 X89.331 Y103.924 E0.00820
G1 X90.963 Y100.667 E0.09302
G1 X90.654 Y100.582 E0.00817
G1 X89.020 Y103.844 E0.09315
G1 X88.709 Y103.764 E0.00820
G1 X90.346 Y100.498 E0.09329
G1 X90.037 Y100.413 E0.00817
G1 X88.434 Y103.612 E0.09136
G1 X88.113 Y103.552 E0.00834
G1 X89.728 Y100.328 E0.09207
G1 X89.420 Y100.244 E0.00817
G1 X87.791 Y103.493 E0.09279
G1 X87.468 Y103.438 E0.00838
G1 X89.086 Y100.209 E0.09223
G1 X88.770 Y100.140 E0.00827
G1 X87.099 Y103.473 E0.09520
G1 X86.766 Y103.437 E0.00856
G1 X88.451 Y100.076 E0.09602
G1 X88.126 Y100.024 E0.00840
G1 X86.433 Y103.402 E0.09648
G1 X86.100 Y103.366 E0.00856
G1 X87.799 Y99.976 E0.09682
G1 X87.487 Y99.897 E0.00820
G1 X85.766 Y103.330 E0.09806
G1 X85.433 Y103.295 E0.00856
G1 X87.152 Y99.866 E0.09792
G1 X86.816 Y99.835 E0.00861
G1 X85.099 Y103.260 E0.09782
G1 X84.764 Y103.228 E0.00859
G1 X86.480 Y99.805 E0.09779
G1 X86.145 Y99.774 E0.00861
G1 X84.428 Y103.198 E0.09780
G1 X84.091 Y103.171 E0.00864
G1 X85.809 Y99.743 E0.09791
G1 X85.473 Y99.713 E0.00862
G1 X83.754 Y103.144 E0.09799
G1 X83.423 Y103.103 E0.00850
G1 X85.134 Y99.690 E0.09746
G1 X84.790 Y99.674 E0.00877
G1 X83.100 Y103.046 E0.09631
G1 X82.777 Y102.990 E0.00837
G1 X84.441 Y99.671 E0.09480
G1 X84.086 Y99.679 E0.00906
G1 X82.454 Y102.934 E0.09298
G1 X82.139 Y102.864 E0.00826
G1 X83.719 Y99.711 E0.09005
G1 X83.333 Y99.781 E0.01001
G1 X82.085 Y102.271 E0.07113
G1 X82.063 Y101.614 E0.01678
G1 X82.933 Y99.878 E0.04959
G1 X82.534 Y99.975 E0.01050
G1 X82.041 Y100.958 E0.02806
G1 X82.019 Y100.301 E0.01678
G1 X82.134 Y100.072 E0.00653
G1 E-1.50000 F1800.00000
G1 X105.986 Y96.003 F6000.000
G1 E1.50000 F1800.00000
G1 F2100
G1 X109.055 Y89.879 E0.17490
G1 X109.762 Y89.185 F6000.000
G1 F2100
G1 X106.245 Y96.201 E0.20040
G1 X106.504 Y96.400 E0.00834
G1 X110.324 Y88.778 E0.21770
G1 E-1.50000 F1800.00000
G1 X111.206 Y87.735 F6000.000
G1 E1.50000 F1800.00000
G1 F2100
G1 X106.763 Y96.598 E0.25316
G1 X107.386 Y96.072 F6000.000
G1 F2100
G1 X112.495 Y85.879 E0.29112
G1 E-1.50000 F1800.00000
G1 X113.712 Y84.167 F6000.000
G1 E1.50000 F1800.00000
G1 F2100
G1 X107.761 Y96.040 E0.33911
G1 X107.986 Y96.306 E0.00891
G1 X114.594 Y83.123 E0.37654
G1 X114.881 Y83.266 E0.00819
G1 X107.959 Y97.076 E0.39441
G1 E-1.50000 F1800.00000
G1 X109.275 Y97.314 F6000.000
G1 E1.50000 F1800.00000
G1 F2100
G1 X108.837 Y98.187 E0.02495
G1 X108.578 Y97.989 E0.00834
G1 X109.388 Y96.373 E0.04615
G1 X109.501 Y95.432 F6000.000
G1 F2100
G1 X108.319 Y97.790 E0.06736
G1 X108.060 Y97.591 E0.00834
G1 X115.167 Y83.410 E0.40504
G1 X115.452 Y83.558 E0.00819
G1 X110.596 Y93.247 E0.27673
G1 E-1.50000 F1800.00000
G1 X111.378 Y92.401 F6000.000
G1 E1.50000 F1800.00000
G1 F2100
G1 X115.735 Y83.709 E0.24826
G1 X116.018 Y83.860 E0.00819
G1 X112.092 Y91.694 E0.22375
G1 X112.802 Y90.992 F6000.000
G1 F2100
G1 X116.301 Y84.011 E0.19938
G1 X116.584 Y84.162 E0.00819
G1 X113.513 Y90.289 E0.17500
G1 X114.224 Y89.587 F6000.000
G1 F2100
G1 X116.867 Y84.313 E0.15062
G1 E-1.50000 F1800.00000
G1 X116.477 Y85.808 F6000.000
G1 E1.50000 F1800.00000
G1 F2100
G1 X115.957 Y86.845 E0.02962
G1 E-1.50000 F1800.00000
G1 X108.279 Y90.712 F6000.000
G1 E1.50000 F1800.00000
G1 F2100
G1 X106.185 Y94.889 E0.11931
G1 E-1.50000 F1800.00000
G1 X106.681 Y93.183 F6000.000
G1 E1.50000 F1800.00000
G1 F2100
G1 X107.002 Y92.543 E0.01826
G1 E-1.50000 F1800.00000
G1 X107.497 Y107.998 F6000.000
G1 E1.50000 F1800.00000
G1 F2100
G1 X107.695 Y107.603 E0.01129
G1 X108.136 Y107.422 E0.01217
G1 X107.690 Y108.312 E0.02544
G1 E-1.50000 F1800.00000
G1 X104.946 Y108.900 F6000.000
G1 E1.50000 F1800.00000
G1 F2100
G1 X105.051 Y108.690 E0.00600
G1 X105.492 Y108.509 E0.01217
G1 X105.200 Y109.091 E0.01662
G1 X105.454 Y109.281 E0.00812
G1 X105.932 Y108.328 E0.02724
G1 X106.357 Y108.178 E0.01151
G1 X105.709 Y109.472 E0.03696
G1 X105.963 Y109.663 E0.00812
G1 X106.621 Y108.350 E0.03750
G1 X106.873 Y108.546 E0.00815
G1 X106.218 Y109.853 E0.03733
G1 X106.472 Y110.044 E0.00812
G1 X107.132 Y108.728 E0.03759
G1 X107.434 Y108.822 E0.00809
G1 X106.726 Y110.234 E0.04034
G1 X106.981 Y110.425 E0.00812
G1 X108.577 Y107.241 E0.09095
G1 X108.881 Y107.332 E0.00811
G1 X107.234 Y110.619 E0.09386
G1 X107.487 Y110.811 E0.00813
G1 X109.111 Y107.572 E0.09252
G1 X109.340 Y107.812 E0.00848
G1 X107.709 Y111.067 E0.09296
G1 X107.902 Y111.381 E0.00941
G1 X109.570 Y108.053 E0.09505
G1 X109.791 Y108.310 E0.00866
G1 X108.094 Y111.695 E0.09669
G1 X108.281 Y112.020 E0.00957
G1 X109.998 Y108.594 E0.09786
G1 X110.206 Y108.878 E0.00899
G1 X108.453 Y112.376 E0.09988
G1 X108.609 Y112.761 E0.01063
G1 X110.413 Y109.163 E0.10278
G1 X110.725 Y109.239 E0.00819
G1 X108.752 Y113.175 E0.11242
G1 X108.882 Y113.614 E0.01168
G1 X110.918 Y109.551 E0.11605
G1 X111.110 Y109.868 E0.00945
G1 X109.005 Y114.067 E0.11995
