; generated by Slic3r 1.30.0.25-prusa3d-release_candidate_1_3-win64 on 2018-11-23 at 22:21:01

; external perimeters extrusion width = 0.45mm
; perimeters extrusion width = 0.45mm
; infill extrusion width = 0.45mm
; solid infill extrusion width = 0.45mm
; top infill extrusion width = 0.45mm

M107
M190 S50 ; set bed temperature and wait for it to be reached
M201 X1000 Y1000 E600
M109 S210
M92 E161.3
G28
G92 E0.0
G1 X8.0 F2000
G1 Y60.0 E4.0  F1000.0
G1 Y100.0 E8.5  F1000.0
G92 E0.0
G21 ; set units to millimeters
G90 ; use absolute coordinates
M83 ; use relative distances for extrusion
G1 E-1.50000 F1800.00000
G1 Z0.200 F6000.000
G1 X88.410 Y47.693 F6000.000
G1 E1.50000 F1800.00000
G1 F2100
G1 E0.04912 F1800.000 ; pressure advance
G1 X94.095 Y42.693 E0.25626
G1 X95.685 Y42.093 E0.05751
G1 X96.316 Y42.093 E0.02135
G1 X97.142 Y42.239 E0.02840
G1 X110.826 Y47.239 E0.49316
G1 X111.928 Y48.059 E0.04648
G1 X112.407 Y49.500 E0.05141
G1 X112.407 Y149.500 E3.38488
G1 X112.016 Y150.816 E0.04648
G1 X110.967 Y151.705 E0.04652
G1 X97.282 Y157.705 E0.50578
G1 X96.316 Y157.907 E0.03343
G1 X95.685 Y157.907 E0.02135
G1 X93.938 Y157.156 E0.06438
G1 X88.253 Y151.156 E0.27977
G1 X87.593 Y149.500 E0.06032
G1 X87.593 Y49.500 E3.38488
G1 X88.386 Y47.747 E0.06511
G1 E-0.04912 F1800.000 ; pressure discharge
G1 E-1.50000 F1800.00000
G1 X109.368 Y50.132 F6000.000
G1 E1.50000 F1800.00000
G1 F1680
G1 E0.03144 F1800.000 ; pressure advance
G1 X109.368 Y148.868 E3.34209
G1 X90.632 Y148.868 E0.63419
G1 X90.632 Y50.132 E3.34209
G1 X109.308 Y50.132 E0.63216
G1 E-0.03144 F1800.000 ; pressure discharge
G1 E-1.50000 F1800.00000
G1 X96.091 Y49.725 F6000.000
G1 E1.50000 F1800.00000
G1 F1680
G1 X109.775 Y49.725 E0.46321
G1 X109.775 Y149.275 E3.36965
G1 X96.091 Y149.275 E0.46321
G1 X96.091 Y155.275 E0.20309
G1 X95.910 Y155.275 E0.00611
G1 X95.910 Y149.275 E0.20309
G1 X90.225 Y149.275 E0.19242
G1 X90.225 Y49.725 E3.36965
G1 X95.910 Y49.725 E0.19242
G1 X95.910 Y44.725 E0.16924
G1 X96.091 Y44.725 E0.00611
G1 X96.091 Y49.665 E0.16721
G1 X96.095 Y50.125 F6000.000
G1 E-1.50000 F1800.00000
G1 X109.067 Y50.646 F6000.000
G1 E1.50000 F1800.00000
G1 F1680
G1 X108.855 Y50.433 E0.01019
G1 X108.278 Y50.433 E0.01953
G1 X109.067 Y51.222 E0.03781
G1 X109.067 Y51.798 E0.01953
G1 X107.702 Y50.433 E0.06543
G1 X107.126 Y50.433 E0.01953
G1 X109.067 Y52.375 E0.09305
G1 X109.067 Y52.951 E0.01953
G1 X106.549 Y50.433 E0.12067
G1 X105.973 Y50.433 E0.01953
G1 X109.067 Y53.527 E0.14829
G1 X109.067 Y54.104 E0.01953
G1 X105.397 Y50.433 E0.17591
G1 X104.820 Y50.433 E0.01953
G1 X109.067 Y54.680 E0.20353
G1 X109.067 Y55.256 E0.01953
G1 X104.244 Y50.433 E0.23115
G1 X103.668 Y50.433 E0.01953
G1 X109.067 Y55.833 E0.25877
G1 X109.067 Y56.409 E0.01953
G1 X103.091 Y50.433 E0.28639
G1 X102.515 Y50.433 E0.01953
G1 X109.067 Y56.985 E0.31401
G1 X109.067 Y57.562 E0.01953
G1 X101.939 Y50.433 E0.34163
G1 X101.362 Y50.433 E0.01953
G1 X109.067 Y58.138 E0.36925
G1 X109.067 Y58.714 E0.01953
G1 X100.786 Y50.433 E0.39687
G1 X100.210 Y50.433 E0.01953
G1 X109.067 Y59.291 E0.42449
G1 X109.067 Y59.867 E0.01953
G1 X99.633 Y50.433 E0.45211
G1 X99.057 Y50.433 E0.01953
G1 X109.067 Y60.443 E0.47973
G1 X109.067 Y61.020 E0.01953
G1 X98.481 Y50.433 E0.50734
G1 X97.904 Y50.433 E0.01953
G1 X109.067 Y61.596 E0.53496
G1 X109.067 Y62.172 E0.01953
G1 X97.328 Y50.433 E0.56258
G1 X96.752 Y50.433 E0.01953
G1 X109.067 Y62.749 E0.59020
G1 X109.067 Y63.325 E0.01953
G1 X96.175 Y50.433 E0.61782
G1 X95.599 Y50.433 E0.01953
G1 X109.067 Y63.901 E0.64544
G1 X109.067 Y64.478 E0.01953
G1 X95.023 Y50.433 E0.67306
G1 X94.446 Y50.433 E0.01953
G1 X109.067 Y65.054 E0.70068
G1 X109.067 Y65.630 E0.01953
G1 X93.870 Y50.433 E0.72830
G1 X93.294 Y50.433 E0.01953
G1 X109.067 Y66.207 E0.75592
G1 X109.067 Y66.783 E0.01953
G1 X92.717 Y50.433 E0.78354
G1 X92.141 Y50.433 E0.01953
G1 X109.067 Y67.359 E0.81116
G1 X109.067 Y67.936 E0.01953
G1 X91.565 Y50.433 E0.83878
G1 X90.988 Y50.433 E0.01953
G1 X109.067 Y68.512 E0.86640
G1 X109.067 Y69.088 E0.01953
G1 X90.933 Y50.954 E0.86905
G1 X90.933 Y51.530 E0.01953
G1 X109.067 Y69.665 E0.86905
G1 X109.067 Y70.241 E0.01953
G1 X90.933 Y52.107 E0.86905
G1 X90.933 Y52.683 E0.01953
G1 X109.067 Y70.817 E0.86905
G1 X109.067 Y71.394 E0.01953
G1 X90.933 Y53.259 E0.86905
G1 X90.933 Y53.836 E0.01953
G1 X109.067 Y71.970 E0.86905
G1 X109.067 Y72.546 E0.01953
G1 X90.933 Y54.412 E0.86905
G1 X90.933 Y54.988 E0.01953
G1 X109.067 Y73.123 E0.86905
G1 X109.067 Y73.699 E0.01953
G1 X90.933 Y55.565 E0.86905
G1 X90.933 Y56.141 E0.01953
G1 X109.067 Y74.275 E0.86905
G1 X109.067 Y74.852 E0.01953
G1 X90.933 Y56.717 E0.86905
G1 X90.933 Y57.294 E0.01953
G1 X109.067 Y75.428 E0.86905
G1 X109.067 Y76.004 E0.01953
G1 X90.933 Y57.870 E0.86905
G1 X90.933 Y58.446 E0.01953
G1 X109.067 Y76.581 E0.86905
G1 X109.067 Y77.157 E0.01953
G1 X90.933 Y59.023 E0.86905
G1 X90.933 Y59.599 E0.01953
G1 X109.067 Y77.733 E0.86905
G1 X109.067 Y78.310 E0.01953
G1 X90.933 Y60.175 E0.86905
G1 X90.933 Y60.752 E0.01953
G1 X109.067 Y78.886 E0.86905
G1 X109.067 Y79.463 E0.01953
G1 X90.933 Y61.328 E0.86905
G1 X90.933 Y61.904 E0.01953
G1 X109.067 Y80.039 E0.86905
G1 X109.067 Y80.615 E0.01953
G1 X90.933 Y62.481 E0.86905
G1 X90.933 Y63.057 E0.01953
G1 X109.067 Y81.192 E0.86905
G1 X109.067 Y81.768 E0.01953
G1 X90.933 Y63.633 E0.86905
G1 X90.933 Y64.210 E0.01953
G1 X109.067 Y82.344 E0.86905
G1 X109.067 Y82.921 E0.01953
G1 X90.933 Y64.786 E0.86905
G1 X90.933 Y65.362 E0.01953
G1 X109.067 Y83.497 E0.86905
G1 X109.067 Y84.073 E0.01953
G1 X90.933 Y65.939 E0.86905
G1 X90.933 Y66.515 E0.01953
G1 X109.067 Y84.650 E0.86905
G1 X109.067 Y85.226 E0.01953
G1 X90.933 Y67.091 E0.86905
G1 X90.933 Y67.668 E0.01953
G1 X109.067 Y85.802 E0.86905
G1 X109.067 Y86.379 E0.01953
G1 X90.933 Y68.244 E0.86905
G1 X90.933 Y68.820 E0.01953
G1 X109.067 Y86.955 E0.86905
G1 X109.067 Y87.531 E0.01953
G1 X90.933 Y69.397 E0.86905
G1 X90.933 Y69.973 E0.01953
G1 X109.067 Y88.108 E0.86905
G1 X109.067 Y88.684 E0.01953
G1 X90.933 Y70.549 E0.86905
G1 X90.933 Y71.126 E0.01953
G1 X109.067 Y89.260 E0.86905
G1 X109.067 Y89.837 E0.01953
G1 X90.933 Y71.702 E0.86905
G1 X90.933 Y72.278 E0.01953
G1 X109.067 Y90.413 E0.86905
G1 X109.067 Y90.989 E0.01953
G1 X90.933 Y72.855 E0.86905
G1 X90.933 Y73.431 E0.01953
G1 X109.067 Y91.566 E0.86905
G1 X109.067 Y92.142 E0.01953
G1 X90.933 Y74.007 E0.86905
G1 X90.933 Y74.584 E0.01953
G1 X109.067 Y92.718 E0.86905
G1 X109.067 Y93.295 E0.01953
G1 X90.933 Y75.160 E0.86905
G1 X90.933 Y75.736 E0.01953
G1 X109.067 Y93.871 E0.86905
G1 X109.067 Y94.447 E0.01953
G1 X90.933 Y76.313 E0.86905
G1 X90.933 Y76.889 E0.01953
G1 X109.067 Y95.024 E0.86905
G1 X109.067 Y95.600 E0.01953
G1 X90.933 Y77.465 E0.86905
G1 X90.933 Y78.042 E0.01953
G1 X109.067 Y96.176 E0.86905
G1 X109.067 Y96.753 E0.01953
G1 X90.933 Y78.618 E0.86905
G1 X90.933 Y79.194 E0.01953
G1 X109.067 Y97.329 E0.86905
G1 X109.067 Y97.905 E0.01953
G1 X90.933 Y79.771 E0.86905
G1 X90.933 Y80.347 E0.01953
G1 X109.067 Y98.482 E0.86905
G1 X109.067 Y99.058 E0.01953
G1 X90.933 Y80.924 E0.86905
G1 X90.933 Y81.500 E0.01953
G1 X109.067 Y99.634 E0.86905
G1 X109.067 Y100.211 E0.01953
G1 X90.933 Y82.076 E0.86905
G1 X90.933 Y82.653 E0.01953
G1 X109.067 Y100.787 E0.86905
G1 X109.067 Y101.363 E0.01953
G1 X90.933 Y83.229 E0.86905
G1 X90.933 Y83.805 E0.01953
G1 X109.067 Y101.940 E0.86905
G1 X109.067 Y102.516 E0.01953
G1 X90.933 Y84.382 E0.86905
G1 X90.933 Y84.958 E0.01953
G1 X109.067 Y103.092 E0.86905
G1 X109.067 Y103.669 E0.01953
G1 X90.933 Y85.534 E0.86905
G1 X90.933 Y86.111 E0.01953
G1 X109.067 Y104.245 E0.86905
G1 X109.067 Y104.821 E0.01953
G1 X90.933 Y86.687 E0.86905
G1 X90.933 Y87.263 E0.01953
G1 X109.067 Y105.398 E0.86905
G1 X109.067 Y105.974 E0.01953
G1 X90.933 Y87.840 E0.86905
G1 X90.933 Y88.416 E0.01953
G1 X109.067 Y106.550 E0.86905
G1 X109.067 Y107.127 E0.01953
G1 X90.933 Y88.992 E0.86905
G1 X90.933 Y89.569 E0.01953
G1 X109.067 Y107.703 E0.86905
G1 X109.067 Y108.279 E0.01953
G1 X90.933 Y90.145 E0.86905
G1 X90.933 Y90.721 E0.01953
G1 X109.067 Y108.856 E0.86905
G1 X109.067 Y109.432 E0.01953
G1 X90.933 Y91.298 E0.86905
G1 X90.933 Y91.874 E0.01953
G1 X109.067 Y110.008 E0.86905
G1 X109.067 Y110.585 E0.01953
G1 X90.933 Y92.450 E0.86905
G1 X90.933 Y93.027 E0.01953
G1 X109.067 Y111.161 E0.86905
G1 X109.067 Y111.737 E0.01953
G1 X90.933 Y93.603 E0.86905
G1 X90.933 Y94.179 E0.01953
G1 X109.067 Y112.314 E0.86905
G1 X109.067 Y112.890 E0.01953
G1 X90.933 Y94.756 E0.86905
G1 X90.933 Y95.332 E0.01953
G1 X109.067 Y113.466 E0.86905
G1 X109.067 Y114.043 E0.01953
G1 X90.933 Y95.908 E0.86905
G1 X90.933 Y96.485 E0.01953
G1 X109.067 Y114.619 E0.86905
G1 X109.067 Y115.195 E0.01953
G1 X90.933 Y97.061 E0.86905
G1 X90.933 Y97.637 E0.01953
G1 X109.067 Y115.772 E0.86905
G1 X109.067 Y116.348 E0.01953
G1 X90.933 Y98.214 E0.86905
G1 X90.933 Y98.790 E0.01953
G1 X109.067 Y116.924 E0.86905
G1 X109.067 Y117.501 E0.01953
G1 X90.933 Y99.366 E0.86905
G1 X90.933 Y99.943 E0.01953
G1 X109.067 Y118.077 E0.86905
G1 X109.067 Y118.653 E0.01953
G1 X90.933 Y100.519 E0.86905
G1 X90.933 Y101.095 E0.01953
G1 X109.067 Y119.230 E0.86905
G1 X109.067 Y119.806 E0.01953
G1 X90.933 Y101.672 E0.86905
G1 X90.933 Y102.248 E0.01953
G1 X109.067 Y120.382 E0.86905
G1 X109.067 Y120.959 E0.01953
G1 X90.933 Y102.824 E0.86905
G1 X90.933 Y103.401 E0.01953
G1 X109.067 Y121.535 E0.86905
G1 X109.067 Y122.111 E0.01953
G1 X90.933 Y103.977 E0.86905
G1 X90.933 Y104.553 E0.01953
G1 X109.067 Y122.688 E0.86905
G1 X109.067 Y123.264 E0.01953
G1 X90.933 Y105.130 E0.86905
G1 X90.933 Y105.706 E0.01953
G1 X109.067 Y123.840 E0.86905
G1 X109.067 Y124.417 E0.01953
G1 X90.933 Y106.282 E0.86905
G1 X90.933 Y106.859 E0.01953
G1 X109.067 Y124.993 E0.86905
G1 X109.067 Y125.569 E0.01953
G1 X90.933 Y107.435 E0.86905
G1 X90.933 Y108.011 E0.01953
G1 X109.067 Y126.146 E0.86905
G1 X109.067 Y126.722 E0.01953
G1 X90.933 Y108.588 E0.86905
G1 X90.933 Y109.164 E0.01953
G1 X109.067 Y127.298 E0.86905
G1 X109.067 Y127.875 E0.01953
G1 X90.933 Y109.740 E0.86905
G1 X90.933 Y110.317 E0.01953
G1 X109.067 Y128.451 E0.86905
G1 X109.067 Y129.027 E0.01953
G1 X90.933 Y110.893 E0.86905
G1 X90.933 Y111.469 E0.01953
G1 X109.067 Y129.604 E0.86905
G1 X109.067 Y130.180 E0.01953
G1 X90.933 Y112.046 E0.86905
G1 X90.933 Y112.622 E0.01953
G1 X109.067 Y130.756 E0.86905
G1 X109.067 Y131.333 E0.01953
G1 X90.933 Y113.198 E0.86905
G1 X90.933 Y113.775 E0.01953
G1 X109.067 Y131.909 E0.86905
G1 X109.067 Y132.485 E0.01953
G1 X90.933 Y114.351 E0.86905
G1 X90.933 Y114.927 E0.01953
G1 X109.067 Y133.062 E0.86905
G1 X109.067 Y133.638 E0.01953
G1 X90.933 Y115.504 E0.86905
G1 X90.933 Y116.080 E0.01953
G1 X109.067 Y134.214 E0.86905
G1 X109.067 Y134.791 E0.01953
G1 X90.933 Y116.656 E0.86905
G1 X90.933 Y117.233 E0.01953
G1 X109.067 Y135.367 E0.86905
G1 X109.067 Y135.943 E0.01953
G1 X90.933 Y117.809 E0.86905
G1 X90.933 Y118.385 E0.01953
G1 X109.067 Y136.520 E0.86905
G1 X109.067 Y137.096 E0.01953
G1 X90.933 Y118.962 E0.86905
G1 X90.933 Y119.538 E0.01953
G1 X109.067 Y137.672 E0.86905
G1 X109.067 Y138.249 E0.01953
G1 X90.933 Y120.114 E0.86905
G1 X90.933 Y120.691 E0.01953
G1 X109.067 Y138.825 E0.86905
G1 X109.067 Y139.401 E0.01953
G1 X90.933 Y121.267 E0.86905
G1 X90.933 Y121.843 E0.01953
G1 X109.067 Y139.978 E0.86905
G1 X109.067 Y140.554 E0.01953
G1 X90.933 Y122.420 E0.86905
G1 X90.933 Y122.996 E0.01953
G1 X109.067 Y141.131 E0.86905
G1 X109.067 Y141.707 E0.01953
G1 X90.933 Y123.572 E0.86905
G1 X90.933 Y124.149 E0.01953
G1 X109.067 Y142.283 E0.86905
G1 X109.067 Y142.860 E0.01953
G1 X90.933 Y124.725 E0.86905
G1 X90.933 Y125.301 E0.01953
G1 X109.067 Y143.436 E0.86905
G1 X109.067 Y144.012 E0.01953
G1 X90.933 Y125.878 E0.86905
G1 X90.933 Y126.454 E0.01953
G1 X109.067 Y144.589 E0.86905
G1 X109.067 Y145.165 E0.01953
G1 X90.933 Y127.030 E0.86905
G1 X90.933 Y127.607 E0.01953
G1 X109.067 Y145.741 E0.86905
G1 X109.067 Y146.318 E0.01953
G1 X90.933 Y128.183 E0.86905
G1 X90.933 Y128.759 E0.01953
G1 X109.067 Y146.894 E0.86905
G1 X109.067 Y147.470 E0.01953
G1 X90.933 Y129.336 E0.86905
G1 X90.933 Y129.912 E0.01953
G1 X109.067 Y148.047 E0.86905
G1 X109.012 Y148.567 E0.01775
G1 X90.933 Y130.488 E0.86639
G1 X90.933 Y131.065 E0.01953
G1 X108.436 Y148.567 E0.83877
G1 X107.859 Y148.567 E0.01953
G1 X90.933 Y131.641 E0.81115
G1 X90.933 Y132.217 E0.01953
G1 X107.283 Y148.567 E0.78353
G1 X106.707 Y148.567 E0.01953
G1 X90.933 Y132.794 E0.75591
G1 X90.933 Y133.370 E0.01953
G1 X106.130 Y148.567 E0.72829
G1 X105.554 Y148.567 E0.01953
G1 X90.933 Y133.946 E0.70067
G1 X90.933 Y134.523 E0.01953
G1 X104.978 Y148.567 E0.67305
G1 X104.401 Y148.567 E0.01953
G1 X90.933 Y135.099 E0.64543
G1 X90.933 Y135.675 E0.01953
G1 X103.825 Y148.567 E0.61781
G1 X103.249 Y148.567 E0.01953
G1 X90.933 Y136.252 E0.59020
G1 X90.933 Y136.828 E0.01953
G1 X102.672 Y148.567 E0.56258
G1 X102.096 Y148.567 E0.01953
G1 X90.933 Y137.404 E0.53496
G1 X90.933 Y137.981 E0.01953
G1 X101.520 Y148.567 E0.50734
G1 X100.943 Y148.567 E0.01953
G1 X90.933 Y138.557 E0.47972
G1 X90.933 Y139.133 E0.01953
G1 X100.367 Y148.567 E0.45210
G1 X99.791 Y148.567 E0.01953
G1 X90.933 Y139.710 E0.42448
G1 X90.933 Y140.286 E0.01953
G1 X99.214 Y148.567 E0.39686
G1 X98.638 Y148.567 E0.01953
G1 X90.933 Y140.862 E0.36924
G1 X90.933 Y141.439 E0.01953
G1 X98.062 Y148.567 E0.34162
G1 X97.485 Y148.567 E0.01953
G1 X90.933 Y142.015 E0.31400
G1 X90.933 Y142.592 E0.01953
G1 X96.909 Y148.567 E0.28638
G1 X96.333 Y148.567 E0.01953
G1 X90.933 Y143.168 E0.25876
G1 X90.933 Y143.744 E0.01953
G1 X95.756 Y148.567 E0.23114
G1 X95.180 Y148.567 E0.01953
G1 X90.933 Y144.321 E0.20352
G1 X90.933 Y144.897 E0.01953
G1 X94.604 Y148.567 E0.17590
G1 X94.027 Y148.567 E0.01953
G1 X90.933 Y145.473 E0.14828
G1 X90.933 Y146.050 E0.01953
G1 X93.451 Y148.567 E0.12066
G1 X92.875 Y148.567 E0.01953
G1 X90.933 Y146.626 E0.09304
G1 X90.933 Y147.202 E0.01953
G1 X92.298 Y148.567 E0.06542
G1 X91.722 Y148.567 E0.01953
G1 X90.933 Y147.779 E0.03780
M106 S216.75
G1 E-1.50000 F1800.00000
G1 Z0.400 F6000.000
G1 X96.088 Y50.132 F6000.000
G1 E1.50000 F1800.00000
G1 F2400
G1 E0.06416 F1800.000 ; pressure advance
G1 X109.368 Y50.132 E0.44951
G1 X109.368 Y148.868 E3.34209
G1 X96.088 Y148.868 E0.44951
G1 X96.088 Y154.868 E0.20309
G1 X95.912 Y154.868 E0.00596
G1 X95.912 Y148.868 E0.20309
G1 X90.632 Y148.868 E0.17872
G1 X90.632 Y50.132 E3.34209
G1 X95.912 Y50.132 E0.17872
G1 X95.912 Y45.132 E0.16924
G1 X96.088 Y45.132 E0.00596
G1 X96.088 Y50.072 E0.16721
G1 X96.495 Y49.725 F6000.000
G1 F2400
G1 X109.775 Y49.725 E0.44951
G1 X109.775 Y149.275 E3.36965
G1 X96.495 Y149.275 E0.44951
G1 X96.495 Y155.275 E0.20309
G1 X95.505 Y155.275 E0.03352
G1 X95.505 Y149.275 E0.20309
G1 X90.225 Y149.275 E0.17872
G1 X90.225 Y49.725 E3.36965
G1 X95.505 Y49.725 E0.17872
G1 X95.505 Y44.725 E0.16924
G1 X96.495 Y44.725 E0.03352
G1 X96.495 Y49.665 E0.16721
G1 X96.521 Y50.124 F6000.000
G1 E-0.06416 F1800.000 ; pressure discharge
G1 E-1.50000 F1800.00000
G1 X91.722 Y50.433 F6000.000
G1 E1.50000 F1800.00000
G1 F2400
G1 X90.933 Y51.222 E0.03780
G1 X90.933 Y51.798 E0.01953
G1 X92.298 Y50.433 E0.06542
G1 X92.875 Y50.433 E0.01953
G1 X90.933 Y52.375 E0.09304
G1 X90.933 Y52.951 E0.01953
G1 X93.451 Y50.433 E0.12066
G1 X94.027 Y50.433 E0.01953
G1 X90.933 Y53.527 E0.14828
G1 X90.933 Y54.104 E0.01953
G1 X94.604 Y50.433 E0.17590
G1 X95.180 Y50.433 E0.01953
G1 X90.933 Y54.680 E0.20352
G1 X90.933 Y55.256 E0.01953
G1 X95.756 Y50.433 E0.23114
G1 X96.333 Y50.433 E0.01953
G1 X90.933 Y55.833 E0.25876
G1 X90.933 Y56.409 E0.01953
G1 X96.909 Y50.433 E0.28638
G1 X97.485 Y50.433 E0.01953
G1 X90.933 Y56.985 E0.31400
G1 X90.933 Y57.562 E0.01953
G1 X98.062 Y50.433 E0.34162
G1 X98.638 Y50.433 E0.01953
G1 X90.933 Y58.138 E0.36924
G1 X90.933 Y58.714 E0.01953
G1 X99.214 Y50.433 E0.39686
G1 X99.791 Y50.433 E0.01953
G1 X90.933 Y59.291 E0.42448
G1 X90.933 Y59.867 E0.01953
G1 X100.367 Y50.433 E0.45210
G1 X100.943 Y50.433 E0.01953
G1 X90.933 Y60.443 E0.47972
G1 X90.933 Y61.020 E0.01953
G1 X101.520 Y50.433 E0.50734
G1 X102.096 Y50.433 E0.01953
G1 X90.933 Y61.596 E0.53496
G1 X90.933 Y62.172 E0.01953
G1 X102.672 Y50.433 E0.56258
G1 X103.249 Y50.433 E0.01953
G1 X90.933 Y62.749 E0.59020
G1 X90.933 Y63.325 E0.01953
