; generated by Slic3r 1.30.0.25-prusa3d-release_candidate_1_3-win64 on 2018-11-23 at 23:19:49

; external perimeters extrusion width = 0.45mm
; perimeters extrusion width = 0.45mm
; infill extrusion width = 0.45mm
; solid infill extrusion width = 0.45mm
; top infill extrusion width = 0.45mm

M107
M190 S50 ; set bed temperature and wait for it to be reached
M201 X1000 Y1000 E600
M109 S210
M92 E161.3
G28
G92 E0.0
G1 X8.0 F2000
G1 Y60.0 E4.0  F1000.0
G1 Y100.0 E8.5  F1000.0
G92 E0.0
G21 ; set units to millimeters
G90 ; use absolute coordinates
M83 ; use relative distances for extrusion
G1 E-1.50000 F1800.00000
G1 Z0.200 F6000.000
G1 X41.532 Y77.796 F6000.000
G1 E1.50000 F1800.00000
G1 F2100
G1 E0.04910 F1800.000 ; pressure advance
G1 X42.500 Y77.593 E0.03347
G1 X157.500 Y77.593 E3.89261
G1 X158.816 Y77.985 E0.04648
G1 X159.704 Y79.032 E0.04648
G1 X159.907 Y80.000 E0.03347
G1 X159.907 Y120.000 E1.35395
G1 X159.516 Y121.316 E0.04648
G1 X158.468 Y122.204 E0.04648
G1 X157.500 Y122.407 E0.03347
G1 X42.500 Y122.407 E3.89261
G1 X41.184 Y122.016 E0.04648
G1 X40.296 Y120.968 E0.04648
G1 X40.093 Y120.000 E0.03347
G1 X40.093 Y80.000 E1.35395
G1 X40.485 Y78.684 E0.04648
G1 X41.487 Y77.835 E0.04445
G1 E-0.04910 F1800.000 ; pressure discharge
G1 E-1.50000 F1800.00000
G1 X43.132 Y119.368 F6000.000
G1 E1.50000 F1800.00000
G1 F1680
G1 E0.03144 F1800.000 ; pressure advance
G1 X43.132 Y80.632 E1.31116
G1 X156.868 Y80.632 E3.84982
G1 X156.868 Y119.368 E1.31116
G1 X43.192 Y119.368 E3.84779
G1 X42.725 Y119.775 F6000.000
G1 F1680
G1 X42.725 Y80.225 E1.33872
G1 X157.275 Y80.225 E3.87738
G1 X157.275 Y119.775 E1.33872
G1 X42.785 Y119.775 E3.87535
G1 X42.886 Y119.409 F6000.000
G1 E-0.03144 F1800.000 ; pressure discharge
G1 E-1.50000 F1800.00000
G1 X44.221 Y119.067 F6000.000
G1 E1.50000 F1800.00000
G1 F1680
G1 X43.433 Y118.279 E0.03773
G1 X43.433 Y117.703 E0.01949
G1 X44.797 Y119.067 E0.06530
G1 X45.373 Y119.067 E0.01949
G1 X43.433 Y117.128 E0.09286
G1 X43.433 Y116.552 E0.01949
G1 X45.948 Y119.067 E0.12042
G1 X46.524 Y119.067 E0.01949
G1 X43.433 Y115.976 E0.14798
G1 X43.433 Y115.400 E0.01949
G1 X47.100 Y119.067 E0.17555
G1 X47.676 Y119.067 E0.01949
G1 X43.433 Y114.825 E0.20311
G1 X43.433 Y114.249 E0.01949
G1 X48.251 Y119.067 E0.23067
G1 X48.827 Y119.067 E0.01949
G1 X43.433 Y113.673 E0.25823
G1 X43.433 Y113.098 E0.01949
G1 X49.403 Y119.067 E0.28580
G1 X49.979 Y119.067 E0.01949
G1 X43.433 Y112.522 E0.31336
G1 X43.433 Y111.946 E0.01949
G1 X50.554 Y119.067 E0.34092
G1 X51.130 Y119.067 E0.01949
G1 X43.433 Y111.370 E0.36848
G1 X43.433 Y110.795 E0.01949
G1 X51.706 Y119.067 E0.39604
G1 X52.282 Y119.067 E0.01949
G1 X43.433 Y110.219 E0.42361
G1 X43.433 Y109.643 E0.01949
G1 X52.857 Y119.067 E0.45117
G1 X53.433 Y119.067 E0.01949
G1 X43.433 Y109.067 E0.47873
G1 X43.433 Y108.492 E0.01949
G1 X54.009 Y119.067 E0.50629
G1 X54.585 Y119.067 E0.01949
G1 X43.433 Y107.916 E0.53386
G1 X43.433 Y107.340 E0.01949
G1 X55.160 Y119.067 E0.56142
G1 X55.736 Y119.067 E0.01949
G1 X43.433 Y106.764 E0.58898
G1 X43.433 Y106.189 E0.01949
G1 X56.312 Y119.067 E0.61654
G1 X56.887 Y119.067 E0.01949
G1 X43.433 Y105.613 E0.64411
G1 X43.433 Y105.037 E0.01949
G1 X57.463 Y119.067 E0.67167
G1 X58.039 Y119.067 E0.01949
G1 X43.433 Y104.461 E0.69923
G1 X43.433 Y103.886 E0.01949
G1 X58.615 Y119.067 E0.72679
G1 X59.190 Y119.067 E0.01949
G1 X43.433 Y103.310 E0.75435
G1 X43.433 Y102.734 E0.01949
G1 X59.766 Y119.067 E0.78192
G1 X60.342 Y119.067 E0.01949
G1 X43.433 Y102.158 E0.80948
G1 X43.433 Y101.583 E0.01949
G1 X60.918 Y119.067 E0.83704
G1 X61.493 Y119.067 E0.01949
G1 X43.433 Y101.007 E0.86460
G1 X43.433 Y100.431 E0.01949
G1 X62.069 Y119.067 E0.89217
G1 X62.645 Y119.067 E0.01949
G1 X43.433 Y99.856 E0.91973
G1 X43.433 Y99.280 E0.01949
G1 X63.221 Y119.067 E0.94729
G1 X63.796 Y119.067 E0.01949
G1 X43.433 Y98.704 E0.97485
G1 X43.433 Y98.128 E0.01949
G1 X64.372 Y119.067 E1.00242
G1 X64.948 Y119.067 E0.01949
G1 X43.433 Y97.553 E1.02998
G1 X43.433 Y96.977 E0.01949
G1 X65.524 Y119.067 E1.05754
G1 X66.099 Y119.067 E0.01949
G1 X43.433 Y96.401 E1.08510
G1 X43.433 Y95.825 E0.01949
G1 X66.675 Y119.067 E1.11266
G1 X67.251 Y119.067 E0.01949
G1 X43.433 Y95.250 E1.14023
G1 X43.433 Y94.674 E0.01949
G1 X67.827 Y119.067 E1.16779
G1 X68.402 Y119.067 E0.01949
G1 X43.433 Y94.098 E1.19535
G1 X43.433 Y93.522 E0.01949
G1 X68.978 Y119.067 E1.22291
G1 X69.554 Y119.067 E0.01949
G1 X43.433 Y92.947 E1.25048
G1 X43.433 Y92.371 E0.01949
G1 X70.129 Y119.067 E1.27804
G1 X70.705 Y119.067 E0.01949
G1 X43.433 Y91.795 E1.30560
G1 X43.433 Y91.219 E0.01949
G1 X71.281 Y119.067 E1.33316
G1 X71.857 Y119.067 E0.01949
G1 X43.433 Y90.644 E1.36073
G1 X43.433 Y90.068 E0.01949
G1 X72.432 Y119.067 E1.38829
G1 X73.008 Y119.067 E0.01949
G1 X43.433 Y89.492 E1.41585
G1 X43.433 Y88.916 E0.01949
G1 X73.584 Y119.067 E1.44341
G1 X74.160 Y119.067 E0.01949
G1 X43.433 Y88.341 E1.47097
G1 X43.433 Y87.765 E0.01949
G1 X74.735 Y119.067 E1.49854
G1 X75.311 Y119.067 E0.01949
G1 X43.433 Y87.189 E1.52610
G1 X43.433 Y86.614 E0.01949
G1 X75.887 Y119.067 E1.55366
G1 X76.463 Y119.067 E0.01949
G1 X43.433 Y86.038 E1.58122
G1 X43.433 Y85.462 E0.01949
G1 X77.038 Y119.067 E1.60879
G1 X77.614 Y119.067 E0.01949
G1 X43.433 Y84.886 E1.63635
G1 X43.433 Y84.311 E0.01949
G1 X78.190 Y119.067 E1.66391
G1 X78.766 Y119.067 E0.01949
G1 X43.433 Y83.735 E1.69147
G1 X43.433 Y83.159 E0.01949
G1 X79.341 Y119.067 E1.71904
G1 X79.917 Y119.067 E0.01949
G1 X43.433 Y82.583 E1.74660
G1 X43.433 Y82.008 E0.01949
G1 X80.493 Y119.067 E1.77416
G1 X81.069 Y119.067 E0.01949
G1 X43.433 Y81.432 E1.80172
G1 X43.510 Y80.933 E0.01709
G1 X81.644 Y119.067 E1.82561
G1 X82.220 Y119.067 E0.01949
G1 X44.086 Y80.933 E1.82561
G1 X44.661 Y80.933 E0.01949
G1 X82.796 Y119.067 E1.82561
G1 X83.371 Y119.067 E0.01949
G1 X45.237 Y80.933 E1.82561
G1 X45.813 Y80.933 E0.01949
G1 X83.947 Y119.067 E1.82561
G1 X84.523 Y119.067 E0.01949
G1 X46.389 Y80.933 E1.82561
G1 X46.964 Y80.933 E0.01949
G1 X85.099 Y119.067 E1.82561
G1 X85.674 Y119.067 E0.01949
G1 X47.540 Y80.933 E1.82561
G1 X48.116 Y80.933 E0.01949
G1 X86.250 Y119.067 E1.82561
G1 X86.826 Y119.067 E0.01949
G1 X48.691 Y80.933 E1.82561
G1 X49.267 Y80.933 E0.01949
G1 X87.402 Y119.067 E1.82561
G1 X87.977 Y119.067 E0.01949
G1 X49.843 Y80.933 E1.82561
G1 X50.419 Y80.933 E0.01949
G1 X88.553 Y119.067 E1.82561
G1 X89.129 Y119.067 E0.01949
G1 X50.994 Y80.933 E1.82561
G1 X51.570 Y80.933 E0.01949
G1 X89.705 Y119.067 E1.82561
G1 X90.280 Y119.067 E0.01949
G1 X52.146 Y80.933 E1.82561
G1 X52.722 Y80.933 E0.01949
G1 X90.856 Y119.067 E1.82561
G1 X91.432 Y119.067 E0.01949
G1 X53.297 Y80.933 E1.82561
G1 X53.873 Y80.933 E0.01949
G1 X92.008 Y119.067 E1.82561
G1 X92.583 Y119.067 E0.01949
G1 X54.449 Y80.933 E1.82561
G1 X55.025 Y80.933 E0.01949
G1 X93.159 Y119.067 E1.82561
G1 X93.735 Y119.067 E0.01949
G1 X55.600 Y80.933 E1.82561
G1 X56.176 Y80.933 E0.01949
G1 X94.311 Y119.067 E1.82561
G1 X94.886 Y119.067 E0.01949
G1 X56.752 Y80.933 E1.82561
G1 X57.328 Y80.933 E0.01949
G1 X95.462 Y119.067 E1.82561
G1 X96.038 Y119.067 E0.01949
G1 X57.903 Y80.933 E1.82561
G1 X58.479 Y80.933 E0.01949
G1 X96.613 Y119.067 E1.82561
G1 X97.189 Y119.067 E0.01949
G1 X59.055 Y80.933 E1.82561
G1 X59.631 Y80.933 E0.01949
G1 X97.765 Y119.067 E1.82561
G1 X98.341 Y119.067 E0.01949
G1 X60.206 Y80.933 E1.82561
G1 X60.782 Y80.933 E0.01949
G1 X98.916 Y119.067 E1.82561
G1 X99.492 Y119.067 E0.01949
G1 X61.358 Y80.933 E1.82561
G1 X61.933 Y80.933 E0.01949
G1 X100.068 Y119.067 E1.82561
G1 X100.644 Y119.067 E0.01949
G1 X62.509 Y80.933 E1.82561
G1 X63.085 Y80.933 E0.01949
G1 X101.219 Y119.067 E1.82561
G1 X101.795 Y119.067 E0.01949
G1 X63.661 Y80.933 E1.82561
G1 X64.236 Y80.933 E0.01949
G1 X102.371 Y119.067 E1.82561
G1 X102.947 Y119.067 E0.01949
G1 X64.812 Y80.933 E1.82561
G1 X65.388 Y80.933 E0.01949
G1 X103.522 Y119.067 E1.82561
G1 X104.098 Y119.067 E0.01949
G1 X65.964 Y80.933 E1.82561
G1 X66.539 Y80.933 E0.01949
G1 X104.674 Y119.067 E1.82561
G1 X105.250 Y119.067 E0.01949
G1 X67.115 Y80.933 E1.82561
G1 X67.691 Y80.933 E0.01949
G1 X105.825 Y119.067 E1.82561
G1 X106.401 Y119.067 E0.01949
G1 X68.267 Y80.933 E1.82561
G1 X68.842 Y80.933 E0.01949
G1 X106.977 Y119.067 E1.82561
G1 X107.553 Y119.067 E0.01949
G1 X69.418 Y80.933 E1.82561
G1 X69.994 Y80.933 E0.01949
G1 X108.128 Y119.067 E1.82561
G1 X108.704 Y119.067 E0.01949
G1 X70.570 Y80.933 E1.82561
G1 X71.145 Y80.933 E0.01949
G1 X109.280 Y119.067 E1.82561
G1 X109.856 Y119.067 E0.01949
G1 X71.721 Y80.933 E1.82561
G1 X72.297 Y80.933 E0.01949
G1 X110.431 Y119.067 E1.82561
G1 X111.007 Y119.067 E0.01949
G1 X72.873 Y80.933 E1.82561
G1 X73.448 Y80.933 E0.01949
G1 X111.583 Y119.067 E1.82561
G1 X112.158 Y119.067 E0.01949
G1 X74.024 Y80.933 E1.82561
G1 X74.600 Y80.933 E0.01949
G1 X112.734 Y119.067 E1.82561
G1 X113.310 Y119.067 E0.01949
G1 X75.175 Y80.933 E1.82561
G1 X75.751 Y80.933 E0.01949
G1 X113.886 Y119.067 E1.82561
G1 X114.461 Y119.067 E0.01949
G1 X76.327 Y80.933 E1.82561
G1 X76.903 Y80.933 E0.01949
G1 X115.037 Y119.067 E1.82561
G1 X115.613 Y119.067 E0.01949
G1 X77.478 Y80.933 E1.82561
G1 X78.054 Y80.933 E0.01949
G1 X116.189 Y119.067 E1.82561
G1 X116.764 Y119.067 E0.01949
G1 X78.630 Y80.933 E1.82561
G1 X79.206 Y80.933 E0.01949
G1 X117.340 Y119.067 E1.82561
G1 X117.916 Y119.067 E0.01949
G1 X79.781 Y80.933 E1.82561
G1 X80.357 Y80.933 E0.01949
G1 X118.492 Y119.067 E1.82561
G1 X119.067 Y119.067 E0.01949
G1 X80.933 Y80.933 E1.82561
G1 X81.509 Y80.933 E0.01949
G1 X119.643 Y119.067 E1.82561
G1 X120.219 Y119.067 E0.01949
G1 X82.084 Y80.933 E1.82561
G1 X82.660 Y80.933 E0.01949
G1 X120.795 Y119.067 E1.82561
G1 X121.370 Y119.067 E0.01949
G1 X83.236 Y80.933 E1.82561
G1 X83.812 Y80.933 E0.01949
G1 X121.946 Y119.067 E1.82561
G1 X122.522 Y119.067 E0.01949
G1 X84.387 Y80.933 E1.82561
G1 X84.963 Y80.933 E0.01949
G1 X123.098 Y119.067 E1.82561
G1 X123.673 Y119.067 E0.01949
G1 X85.539 Y80.933 E1.82561
G1 X86.115 Y80.933 E0.01949
G1 X124.249 Y119.067 E1.82561
G1 X124.825 Y119.067 E0.01949
G1 X86.690 Y80.933 E1.82561
G1 X87.266 Y80.933 E0.01949
G1 X125.400 Y119.067 E1.82561
G1 X125.976 Y119.067 E0.01949
G1 X87.842 Y80.933 E1.82561
G1 X88.418 Y80.933 E0.01949
G1 X126.552 Y119.067 E1.82561
G1 X127.128 Y119.067 E0.01949
G1 X88.993 Y80.933 E1.82561
G1 X89.569 Y80.933 E0.01949
G1 X127.703 Y119.067 E1.82561
G1 X128.279 Y119.067 E0.01949
G1 X90.145 Y80.933 E1.82561
G1 X90.720 Y80.933 E0.01949
G1 X128.855 Y119.067 E1.82561
G1 X129.431 Y119.067 E0.01949
G1 X91.296 Y80.933 E1.82561
G1 X91.872 Y80.933 E0.01949
G1 X130.006 Y119.067 E1.82561
G1 X130.582 Y119.067 E0.01949
G1 X92.448 Y80.933 E1.82561
G1 X93.023 Y80.933 E0.01949
G1 X131.158 Y119.067 E1.82561
G1 X131.734 Y119.067 E0.01949
G1 X93.599 Y80.933 E1.82561
G1 X94.175 Y80.933 E0.01949
G1 X132.309 Y119.067 E1.82561
G1 X132.885 Y119.067 E0.01949
G1 X94.751 Y80.933 E1.82561
G1 X95.326 Y80.933 E0.01949
G1 X133.461 Y119.067 E1.82561
G1 X134.037 Y119.067 E0.01949
G1 X95.902 Y80.933 E1.82561
G1 X96.478 Y80.933 E0.01949
G1 X134.612 Y119.067 E1.82561
G1 X135.188 Y119.067 E0.01949
G1 X97.054 Y80.933 E1.82561
G1 X97.629 Y80.933 E0.01949
G1 X135.764 Y119.067 E1.82561
G1 X136.340 Y119.067 E0.01949
G1 X98.205 Y80.933 E1.82561
G1 X98.781 Y80.933 E0.01949
G1 X136.915 Y119.067 E1.82561
G1 X137.491 Y119.067 E0.01949
G1 X99.357 Y80.933 E1.82561
G1 X99.932 Y80.933 E0.01949
G1 X138.067 Y119.067 E1.82561
G1 X138.642 Y119.067 E0.01949
G1 X100.508 Y80.933 E1.82561
G1 X101.084 Y80.933 E0.01949
G1 X139.218 Y119.067 E1.82561
G1 X139.794 Y119.067 E0.01949
G1 X101.660 Y80.933 E1.82561
G1 X102.235 Y80.933 E0.01949
G1 X140.370 Y119.067 E1.82561
G1 X140.945 Y119.067 E0.01949
G1 X102.811 Y80.933 E1.82561
G1 X103.387 Y80.933 E0.01949
G1 X141.521 Y119.067 E1.82561
G1 X142.097 Y119.067 E0.01949
G1 X103.962 Y80.933 E1.82561
G1 X104.538 Y80.933 E0.01949
G1 X142.673 Y119.067 E1.82561
G1 X143.248 Y119.067 E0.01949
G1 X105.114 Y80.933 E1.82561
G1 X105.690 Y80.933 E0.01949
G1 X143.824 Y119.067 E1.82561
G1 X144.400 Y119.067 E0.01949
G1 X106.265 Y80.933 E1.82561
G1 X106.841 Y80.933 E0.01949
G1 X144.976 Y119.067 E1.82561
G1 X145.551 Y119.067 E0.01949
G1 X107.417 Y80.933 E1.82561
G1 X107.993 Y80.933 E0.01949
G1 X146.127 Y119.067 E1.82561
G1 X146.703 Y119.067 E0.01949
G1 X108.568 Y80.933 E1.82561
G1 X109.144 Y80.933 E0.01949
G1 X147.279 Y119.067 E1.82561
G1 X147.854 Y119.067 E0.01949
G1 X109.720 Y80.933 E1.82561
G1 X110.296 Y80.933 E0.01949
G1 X148.430 Y119.067 E1.82561
G1 X149.006 Y119.067 E0.01949
G1 X110.871 Y80.933 E1.82561
G1 X111.447 Y80.933 E0.01949
G1 X149.582 Y119.067 E1.82561
G1 X150.157 Y119.067 E0.01949
G1 X112.023 Y80.933 E1.82561
G1 X112.599 Y80.933 E0.01949
G1 X150.733 Y119.067 E1.82561
G1 X151.309 Y119.067 E0.01949
G1 X113.174 Y80.933 E1.82561
G1 X113.750 Y80.933 E0.01949
G1 X151.884 Y119.067 E1.82561
G1 X152.460 Y119.067 E0.01949
G1 X114.326 Y80.933 E1.82561
G1 X114.902 Y80.933 E0.01949
G1 X153.036 Y119.067 E1.82561
G1 X153.612 Y119.067 E0.01949
G1 X115.477 Y80.933 E1.82561
G1 X116.053 Y80.933 E0.01949
G1 X154.187 Y119.067 E1.82561
G1 X154.763 Y119.067 E0.01949
G1 X116.629 Y80.933 E1.82561
G1 X117.204 Y80.933 E0.01949
G1 X155.339 Y119.067 E1.82561
G1 X155.915 Y119.067 E0.01949
G1 X117.780 Y80.933 E1.82561
G1 X118.356 Y80.933 E0.01949
G1 X156.490 Y119.067 E1.82561
G1 X156.567 Y118.569 E0.01708
G1 X118.932 Y80.933 E1.80173
G1 X119.507 Y80.933 E0.01949
G1 X156.567 Y117.993 E1.77417
G1 X156.567 Y117.417 E0.01949
G1 X120.083 Y80.933 E1.74661
G1 X120.659 Y80.933 E0.01949
G1 X156.567 Y116.842 E1.71905
G1 X156.567 Y116.266 E0.01949
G1 X121.235 Y80.933 E1.69148
G1 X121.810 Y80.933 E0.01949
G1 X156.567 Y115.690 E1.66392
G1 X156.567 Y115.114 E0.01949
G1 X122.386 Y80.933 E1.63636
G1 X122.962 Y80.933 E0.01949
G1 X156.567 Y114.539 E1.60880
G1 X156.567 Y113.963 E0.01949
G1 X123.538 Y80.933 E1.58123
G1 X124.113 Y80.933 E0.01949
G1 X156.567 Y113.387 E1.55367
G1 X156.567 Y112.811 E0.01949
G1 X124.689 Y80.933 E1.52611
G1 X125.265 Y80.933 E0.01949
G1 X156.567 Y112.236 E1.49855
G1 X156.567 Y111.660 E0.01949
G1 X125.841 Y80.933 E1.47099
G1 X126.416 Y80.933 E0.01949
G1 X156.567 Y111.084 E1.44342
G1 X156.567 Y110.508 E0.01949
G1 X126.992 Y80.933 E1.41586
G1 X127.568 Y80.933 E0.01949
G1 X156.567 Y109.933 E1.38830
G1 X156.567 Y109.357 E0.01949
G1 X128.144 Y80.933 E1.36074
G1 X128.719 Y80.933 E0.01949
G1 X156.567 Y108.781 E1.33317
G1 X156.567 Y108.205 E0.01949
G1 X129.295 Y80.933 E1.30561
G1 X129.871 Y80.933 E0.01949
G1 X156.567 Y107.630 E1.27805
G1 X156.567 Y107.054 E0.01949
G1 X130.446 Y80.933 E1.25049
G1 X131.022 Y80.933 E0.01949
G1 X156.567 Y106.478 E1.22292
G1 X156.567 Y105.902 E0.01949
G1 X131.598 Y80.933 E1.19536
G1 X132.174 Y80.933 E0.01949
G1 X156.567 Y105.327 E1.16780
G1 X156.567 Y104.751 E0.01949
G1 X132.749 Y80.933 E1.14024
G1 X133.325 Y80.933 E0.01949
G1 X156.567 Y104.175 E1.11268
G1 X156.567 Y103.600 E0.01949
G1 X133.901 Y80.933 E1.08511
G1 X134.477 Y80.933 E0.01949
G1 X156.567 Y103.024 E1.05755
G1 X156.567 Y102.448 E0.01949
G1 X135.052 Y80.933 E1.02999
G1 X135.628 Y80.933 E0.01949
G1 X156.567 Y101.872 E1.00243
G1 X156.567 Y101.297 E0.01949
G1 X136.204 Y80.933 E0.97486
G1 X136.780 Y80.933 E0.01949
G1 X156.567 Y100.721 E0.94730
G1 X156.567 Y100.145 E0.01949
G1 X137.355 Y80.933 E0.91974
G1 X137.931 Y80.933 E0.01949
G1 X156.567 Y99.569 E0.89218
G1 X156.567 Y98.994 E0.01949
G1 X138.507 Y80.933 E0.86461
G1 X139.083 Y80.933 E0.01949
G1 X156.567 Y98.418 E0.83705
G1 X156.567 Y97.842 E0.01949
G1 X139.658 Y80.933 E0.80949
G1 X140.234 Y80.933 E0.01949
G1 X156.567 Y97.266 E0.78193
G1 X156.567 Y96.691 E0.01949
G1 X140.810 Y80.933 E0.75437
G1 X141.386 Y80.933 E0.01949
G1 X156.567 Y96.115 E0.72680
G1 X156.567 Y95.539 E0.01949
G1 X141.961 Y80.933 E0.69924
G1 X142.537 Y80.933 E0.01949
G1 X156.567 Y94.963 E0.67168
G1 X156.567 Y94.388 E0.01949
G1 X143.113 Y80.933 E0.64412
G1 X143.688 Y80.933 E0.01949
G1 X156.567 Y93.812 E0.61655
G1 X156.567 Y93.236 E0.01949
G1 X144.264 Y80.933 E0.58899
G1 X144.840 Y80.933 E0.01949
G1 X156.567 Y92.660 E0.56143
G1 X156.567 Y92.085 E0.01949
G1 X145.416 Y80.933 E0.53387
G1 X145.991 Y80.933 E0.01949
G1 X156.567 Y91.509 E0.50630
G1 X156.567 Y90.933 E0.01949
G1 X146.567 Y80.933 E0.47874
